; HEADER_BLOCK_START
; generated by OrcaSlicer 2.3.0 on 2025-12-28 at 17:09:58
; total layer number: 36
;_GP_TOTAL_LAYER_NUMBER_PLACEHOLDER
; filament_density: 1.24
; filament_diameter: 1.75
; max_z_height: 7.25
; HEADER_BLOCK_END

; external perimeters extrusion width = 0.42mm
; perimeters extrusion width = 0.45mm
; infill extrusion width = 0.45mm
; solid infill extrusion width = 0.42mm
; top infill extrusion width = 0.42mm
; support material extrusion width = 0.38mm
; first layer extrusion width = 0.46mm

; EXECUTABLE_BLOCK_START
M201 X2500 Y2500 Z500 E5000
M203 X250 Y250 Z5 E40
M204 P2500 R500 T2500 ; sets acceleration (P, T) and retract acceleration (R), mm/sec^2
M205 X10.00 Y10.00 Z0.40 E5.00 ; sets the jerk limits, mm/sec
;TYPE:Custom
M220 S100 ;Reset Feedrate 
M221 S100 ;Reset Flowrate 
 
M104 S210 ;Set final nozzle temp 
M190 S55 ;Set and wait for bed temp to stabilize 
G28 ;Home 
G92 E0 ;Reset Extruder 
G1 Z2.0 F3000 ;Move Z Axis up 
G1 X-2.1 Y20 Z0.28 F5000.0 ;Move to start position 
M109 S210 ;Wait for nozzle temp to stabilize 
G1 X-2.1 Y145.0 Z0.28 F1500.0 E15 ;Draw the first line 
G1 X-2.4 Y145.0 Z0.28 F5000.0 ;Move to side a little 
G1 X-2.4 Y20 Z0.28 F1500.0 E30 ;Draw the second line 
G92 E0  ;Reset Extruder 
G1 E-1.0000 F1800 ;Retract a bit 
G1 Z2.0 F3000 ;Move Z Axis up 
G1 E0.0000 F1800
G90
G21
M83 ; use relative distances for extrusion
; filament start gcode
M900 K0.115; Override pressure advance value
M106 S0
;LAYER_CHANGE
;Z:0.2
;HEIGHT:0.2
;BEFORE_LAYER_CHANGE
;0.2
G92 E0

G1 E-1 F2400
;_SET_FAN_SPEED_CHANGING_LAYER
M204 P500
; printing object Генератор.stl id:0 copy 0
M204 T500
G1 X131.732 Y106.719 F9000
G1 Z.6
G1 Z.2
G1 E1 F2700
;TYPE:Inner wall
;WIDTH:0.459999
G1 F1800
G1 X131.778 Y107.017 E.00918
G1 X131.901 Y108.157 E.03502
G1 X131.976 Y109.564 E.043
G1 X131.979 Y110.305 E.02262
G1 X131.927 Y111.547 E.03794
G1 X131.854 Y112.365 E.02506
G1 X131.75 Y113.18 E.02507
G1 X131.535 Y114.405 E.03793
G1 X131.357 Y115.203 E.02497
G1 X131.029 Y116.399 E.03784
G1 X130.636 Y117.571 E.03774
G1 X130.177 Y118.72 E.03774
G1 X129.654 Y119.844 E.03784
G1 X129.274 Y120.568 E.02497
G1 X128.646 Y121.641 E.03793
G1 X128.199 Y122.327 E.02497
G1 X127.475 Y123.333 E.03784
G1 X126.698 Y124.295 E.03774
G1 X125.865 Y125.213 E.03783
G1 X125.288 Y125.793 E.02497
G1 X124.373 Y126.63 E.03784
G1 X123.415 Y127.412 E.03774
G1 X122.412 Y128.141 E.03784
G1 X121.729 Y128.59 E.02497
G1 X120.659 Y129.224 E.03793
G1 X119.933 Y129.608 E.02507
G1 X119.194 Y129.966 E.02507
G1 X118.053 Y130.452 E.03784
G1 X116.888 Y130.874 E.03784
G1 X116.103 Y131.117 E.02507
G1 X115.31 Y131.33 E.02507
G1 X114.099 Y131.595 E.03784
G1 X112.875 Y131.792 E.03783
G1 X112.061 Y131.884 E.02497
G1 X110.821 Y131.965 E.03793
G1 X110 Y131.981 E.02507
G1 X109.179 Y131.965 E.02507
G1 X107.939 Y131.884 E.03793
G1 X107.125 Y131.792 E.02497
G1 X105.901 Y131.595 E.03784
G1 X104.693 Y131.331 E.03774
G1 X103.499 Y130.997 E.03784
G1 X102.722 Y130.741 E.02497
G1 X101.561 Y130.297 E.03793
G1 X100.812 Y129.968 E.02497
G1 X99.698 Y129.417 E.03793
G1 X98.982 Y129.02 E.02497
G1 X97.928 Y128.369 E.03784
G1 X96.914 Y127.661 E.03774
G1 X95.941 Y126.897 E.03774
G1 X95.011 Y126.077 E.03784
G1 X94.423 Y125.508 E.02497
G1 X93.571 Y124.603 E.03793
G1 X93.037 Y123.979 E.02507
G1 X92.526 Y123.336 E.02507
G1 X91.801 Y122.327 E.03793
G1 X91.354 Y121.641 E.02497
G1 X90.728 Y120.571 E.03784
G1 X90.164 Y119.47 E.03774
G1 X89.663 Y118.34 E.03774
G1 X89.225 Y117.18 E.03784
G1 X88.972 Y116.402 E.02497
G1 X88.643 Y115.203 E.03793
G1 X88.465 Y114.405 E.02497
G1 X88.25 Y113.18 E.03793
G1 X88.147 Y112.369 E.02497
G1 X88.048 Y111.133 E.03784
G1 X88.019 Y109.896 E.03774
G1 X88.06 Y108.657 E.03784
G1 X88.125 Y107.842 E.02497
G1 X88.282 Y106.609 E.03793
G1 X88.423 Y105.803 E.02497
G1 X88.694 Y104.593 E.03784
G1 X89.032 Y103.403 E.03774
G1 X89.437 Y102.232 E.03784
G1 X89.742 Y101.469 E.02507
G1 X90.074 Y100.718 E.02507
G1 X90.63 Y99.609 E.03783
G1 X91.246 Y98.534 E.03784
G1 X91.686 Y97.844 E.02497
G1 X92.4 Y96.83 E.03783
G1 X93.171 Y95.859 E.03784
G1 X93.709 Y95.243 E.02497
G1 X94.567 Y94.347 E.03784
G1 X95.474 Y93.502 E.03783
G1 X96.1 Y92.971 E.02507
G1 X96.746 Y92.464 E.02507
G1 X97.756 Y91.744 E.03784
G1 X98.804 Y91.083 E.03784
G1 X99.516 Y90.679 E.02497
G1 X100.622 Y90.119 E.03783
G1 X101.758 Y89.622 E.03784
G1 X102.522 Y89.329 E.02497
G1 X103.699 Y88.941 E.03784
G1 X104.897 Y88.619 E.03784
G1 X105.699 Y88.443 E.02507
G1 X106.507 Y88.297 E.02507
G1 X107.736 Y88.135 E.03784
G1 X108.97 Y88.042 E.03774
G1 X110.206 Y88.019 E.03774
G1 X111.445 Y88.066 E.03783
G1 X112.26 Y88.135 E.02497
G1 X113.489 Y88.297 E.03783
G1 X114.708 Y88.528 E.03784
G1 X115.503 Y88.718 E.02497
G1 X116.697 Y89.063 E.03793
G1 X117.472 Y89.327 E.02497
G1 X118.629 Y89.783 E.03793
G1 X119.375 Y90.118 E.02497
G1 X120.484 Y90.679 E.03793
G1 X121.196 Y91.083 E.02497
G1 X122.244 Y91.744 E.03784
G1 X123.251 Y92.462 E.03774
G1 X124.217 Y93.235 E.03774
G1 X125.139 Y94.063 E.03784
G1 X125.722 Y94.637 E.02497
G1 X126.565 Y95.551 E.03793
G1 X127.092 Y96.177 E.02497
G1 X127.845 Y97.165 E.03793
G1 X128.311 Y97.838 E.02497
G1 X128.967 Y98.89 E.03784
G1 X129.562 Y99.974 E.03774
G1 X130.096 Y101.093 E.03784
G1 X130.415 Y101.85 E.02507
G1 X130.705 Y102.619 E.02507
G1 X131.088 Y103.798 E.03784
G1 X131.404 Y104.993 E.03774
G1 X131.652 Y106.208 E.03784
G1 X131.725 Y106.68 E.01457
G1 X132.165 Y106.652 F9000
;TYPE:Outer wall
G1 F1800
G1 X132.213 Y106.959 E.00949
G1 X132.337 Y108.11 E.03533
G1 X132.414 Y109.562 E.04438
G1 X132.418 Y110.314 E.02293
G1 X132.364 Y111.576 E.03856
G1 X132.29 Y112.413 E.02563
G1 X132.184 Y113.246 E.02563
G1 X131.966 Y114.49 E.03856
G1 X131.782 Y115.309 E.0256
G1 X131.449 Y116.526 E.03853
G1 X131.048 Y117.722 E.0385
G1 X130.58 Y118.894 E.03849
G1 X130.047 Y120.038 E.03853
G1 X129.657 Y120.781 E.0256
G1 X129.019 Y121.871 E.03856
G1 X128.561 Y122.574 E.0256
G1 X127.824 Y123.599 E.03853
G1 X127.031 Y124.58 E.0385
G1 X126.184 Y125.516 E.03852
G1 X125.592 Y126.11 E.0256
G1 X124.66 Y126.962 E.03853
G1 X123.683 Y127.76 E.03849
G1 X122.662 Y128.502 E.03853
G1 X121.961 Y128.962 E.0256
G1 X120.874 Y129.606 E.03856
G1 X120.132 Y130 E.02563
G1 X119.375 Y130.365 E.02563
G1 X118.214 Y130.86 E.03853
G1 X117.027 Y131.29 E.03853
G1 X116.225 Y131.538 E.02563
G1 X115.414 Y131.756 E.02563
G1 X114.18 Y132.026 E.03853
G1 X112.934 Y132.227 E.03853
G1 X112.1 Y132.321 E.0256
G1 X110.84 Y132.404 E.03856
G1 X110 Y132.419 E.02563
G1 X109.16 Y132.404 E.02563
G1 X107.9 Y132.321 E.03856
G1 X107.066 Y132.227 E.0256
G1 X105.82 Y132.026 E.03853
G1 X104.587 Y131.756 E.0385
G1 X103.371 Y131.417 E.03853
G1 X102.575 Y131.154 E.0256
G1 X101.395 Y130.702 E.03856
G1 X100.627 Y130.366 E.0256
G1 X99.494 Y129.806 E.03856
G1 X98.761 Y129.399 E.0256
G1 X97.687 Y128.735 E.03853
G1 X96.652 Y128.013 E.03849
G1 X95.66 Y127.234 E.0385
G1 X94.713 Y126.4 E.03853
G1 X94.11 Y125.816 E.0256
G1 X93.245 Y124.896 E.03856
G1 X92.698 Y124.258 E.02563
G1 X92.176 Y123.6 E.02563
G1 X91.439 Y122.574 E.03856
G1 X90.981 Y121.871 E.0256
G1 X90.343 Y120.782 E.03853
G1 X89.768 Y119.659 E.0385
G1 X89.257 Y118.506 E.03849
G1 X88.811 Y117.325 E.03853
G1 X88.551 Y116.528 E.0256
G1 X88.218 Y115.309 E.03856
G1 X88.034 Y114.49 E.0256
G1 X87.816 Y113.246 E.03856
G1 X87.71 Y112.414 E.0256
G1 X87.61 Y111.155 E.03853
G1 X87.58 Y109.894 E.03849
G1 X87.622 Y108.633 E.03853
G1 X87.689 Y107.797 E.0256
G1 X87.848 Y106.543 E.03856
G1 X87.993 Y105.717 E.0256
G1 X88.269 Y104.485 E.03853
G1 X88.613 Y103.272 E.03849
G1 X89.026 Y102.078 E.03853
G1 X89.337 Y101.298 E.02563
G1 X89.678 Y100.531 E.02563
G1 X90.243 Y99.402 E.03852
G1 X90.871 Y98.307 E.03853
G1 X91.321 Y97.599 E.0256
G1 X92.049 Y96.568 E.03852
G1 X92.834 Y95.578 E.03853
G1 X93.385 Y94.946 E.0256
G1 X94.259 Y94.035 E.03853
G1 X95.182 Y93.174 E.03853
G1 X95.823 Y92.631 E.02563
G1 X96.483 Y92.112 E.02563
G1 X97.511 Y91.38 E.03853
G1 X98.579 Y90.706 E.03853
G1 X99.309 Y90.293 E.0256
G1 X100.435 Y89.722 E.03853
G1 X101.592 Y89.216 E.03853
G1 X102.375 Y88.916 E.0256
G1 X103.574 Y88.52 E.03853
G1 X104.793 Y88.193 E.03853
G1 X105.613 Y88.013 E.02563
G1 X106.44 Y87.864 E.02563
G1 X107.691 Y87.699 E.03853
G1 X108.949 Y87.604 E.0385
G1 X110.21 Y87.581 E.0385
G1 X111.472 Y87.628 E.03853
G1 X112.308 Y87.699 E.0256
G1 X113.559 Y87.864 E.03853
G1 X114.799 Y88.099 E.03853
G1 X115.615 Y88.294 E.0256
G1 X116.829 Y88.645 E.03856
G1 X117.623 Y88.915 E.0256
G1 X118.799 Y89.378 E.03856
G1 X119.564 Y89.722 E.0256
G1 X120.691 Y90.293 E.03856
G1 X121.421 Y90.706 E.0256
G1 X122.489 Y91.38 E.03853
G1 X123.516 Y92.112 E.03849
G1 X124.501 Y92.9 E.03849
G1 X125.44 Y93.743 E.03853
G1 X126.037 Y94.332 E.0256
G1 X126.894 Y95.261 E.03856
G1 X127.434 Y95.903 E.0256
G1 X128.2 Y96.907 E.03856
G1 X128.677 Y97.597 E.0256
G1 X129.346 Y98.668 E.03853
G1 X129.952 Y99.774 E.0385
G1 X130.496 Y100.914 E.03853
G1 X130.822 Y101.688 E.02563
G1 X131.119 Y102.473 E.02563
G1 X131.509 Y103.674 E.03853
G1 X131.831 Y104.894 E.0385
G1 X132.084 Y106.13 E.03853
G1 X132.159 Y106.612 E.01488
G1 E-.7 F2400
;WIPE_START
G1 F1800
G1 X132.213 Y106.959 E-.10532
G1 X132.283 Y107.604 E-.19468
;WIPE_END
G17
G3 Z.6 I.396 J-1.151 P1  F9000
G1 X101.651 Y97.057 Z.6
G1 Z.2
G1 E1 F2700
;TYPE:Inner wall
G1 F1800
G1 X102.221 Y96.704 E.02046
G1 X103 Y96.273 E.02717
G1 X103.653 Y95.959 E.02213
G1 X104.285 Y95.691 E.02096
G1 X104.763 Y95.512 E.01555
G1 X105.632 Y95.225 E.02794
G1 X106.393 Y95.019 E.02407
G1 X107.033 Y94.881 E.01999
G1 X107.553 Y94.79 E.01611
G1 X108.461 Y94.67 E.02794
G1 X109.317 Y94.614 E.02619
G1 X110.175 Y94.595 E.02619
G1 X111.071 Y94.632 E.02735
G1 X112.149 Y94.742 E.03306
G1 X112.869 Y94.861 E.02229
G1 X113.578 Y95.012 E.02213
G1 X114.279 Y95.197 E.02213
G1 X114.971 Y95.415 E.02213
G1 X115.652 Y95.665 E.02213
G1 X116.32 Y95.947 E.02214
G1 X117.289 Y96.424 E.03295
G1 X117.881 Y96.76 E.02078
G1 X118.539 Y97.173 E.02371
G1 X119.133 Y97.589 E.02213
G1 X119.707 Y98.033 E.02213
G1 X120.259 Y98.503 E.02213
G1 X121 Y99.215 E.03137
G1 X121.604 Y99.875 E.02732
G1 X122 Y100.335 E.01851
G1 X122.446 Y100.916 E.02236
G1 X122.86 Y101.512 E.02213
G1 X123.245 Y102.126 E.02213
G1 X123.601 Y102.758 E.02213
G1 X123.926 Y103.406 E.02213
G1 X124.221 Y104.068 E.02213
G1 X124.484 Y104.744 E.02213
G1 X124.716 Y105.431 E.02213
G1 X124.914 Y106.129 E.02213
G1 X125.08 Y106.835 E.02213
G1 X125.182 Y107.387 E.01715
G1 X125.259 Y107.891 E.01554
G1 X125.359 Y108.801 E.02794
G1 X125.406 Y109.713 E.02787
G1 X125.403 Y110.224 E.01561
G1 X125.365 Y111.158 E.02851
G1 X125.313 Y111.683 E.01611
G1 X125.246 Y112.207 E.01611
G1 X125.085 Y113.127 E.02851
G1 X124.972 Y113.624 E.01554
G1 X124.731 Y114.507 E.02794
G1 X124.446 Y115.357 E.02738
G1 X124.162 Y116.07 E.02343
G1 X123.861 Y116.73 E.02213
G1 X123.529 Y117.375 E.02213
G1 X123.167 Y118.003 E.02214
G1 X122.736 Y118.658 E.02392
G1 X122.227 Y119.372 E.02676
G1 X121.676 Y120.054 E.02675
G1 X121.19 Y120.592 E.02213
G1 X120.683 Y121.103 E.02199
G1 X120.145 Y121.597 E.02227
G1 X119.588 Y122.061 E.02213
G1 X119.01 Y122.499 E.02213
G1 X118.412 Y122.909 E.02213
G1 X117.795 Y123.291 E.02213
G1 X117.161 Y123.643 E.02213
G1 X116.394 Y124.017 E.02605
G1 X115.579 Y124.36 E.02699
G1 X114.827 Y124.632 E.02441
G1 X114.237 Y124.812 E.01883
G1 X113.726 Y124.947 E.01611
G1 X112.832 Y125.143 E.02794
G1 X112.003 Y125.277 E.02563
G1 X111.421 Y125.34 E.01786
G1 X110.558 Y125.398 E.0264
G1 X109.961 Y125.405 E.01823
G1 X109.434 Y125.394 E.01611
G1 X108.502 Y125.333 E.0285
G1 X107.527 Y125.207 E.02998
G1 X106.603 Y125.029 E.02872
G1 X105.895 Y124.851 E.02229
G1 X105.41 Y124.705 E.01547
G1 X104.926 Y124.545 E.01554
G1 X104.054 Y124.211 E.0285
G1 X103.588 Y124.006 E.01555
G1 X102.75 Y123.592 E.0285
G1 X101.8 Y123.043 E.0335
G1 X101.018 Y122.519 E.02872
G1 X100.435 Y122.08 E.02229
G1 X99.877 Y121.616 E.02213
G1 X99.096 Y120.881 E.03273
G1 X98.456 Y120.201 E.0285
G1 X97.784 Y119.387 E.03222
G1 X97.448 Y118.936 E.01717
G1 X97.041 Y118.335 E.02213
G1 X96.663 Y117.716 E.02213
G1 X96.315 Y117.08 E.02213
G1 X96.087 Y116.615 E.01582
G1 X95.724 Y115.795 E.02737
G1 X95.455 Y115.084 E.02319
G1 X95.25 Y114.451 E.02031
G1 X95.041 Y113.695 E.02395
G1 X94.898 Y113.051 E.0201
G1 X94.744 Y112.15 E.02793
G1 X94.638 Y111.197 E.02926
G1 X94.599 Y110.467 E.02229
G1 X94.595 Y109.893 E.01755
G1 X94.623 Y109.018 E.02671
G1 X94.671 Y108.47 E.01678
G1 X94.789 Y107.563 E.02792
G1 X94.991 Y106.515 E.03258
G1 X95.173 Y105.807 E.02229
G1 X95.387 Y105.114 E.02213
G1 X95.808 Y104.008 E.03614
G1 X96.022 Y103.525 E.01611
G1 X96.431 Y102.706 E.02794
G1 X96.887 Y101.912 E.02794
G1 X97.163 Y101.484 E.01555
G1 X97.69 Y100.736 E.02794
G1 X98.206 Y100.083 E.02539
G1 X98.686 Y99.539 E.02213
G1 X99.191 Y99.019 E.02213
G1 X99.719 Y98.522 E.02213
G1 X100.271 Y98.051 E.02213
G1 X100.729 Y97.696 E.0177
G1 X101.438 Y97.189 E.02659
G1 X101.617 Y97.078 E.00643
G1 X101.881 Y97.43 F9000
;TYPE:Outer wall
G1 F1800
G1 X102.451 Y97.078 E.02047
G1 X103.208 Y96.659 E.02638
G1 X103.843 Y96.354 E.0215
G1 X104.456 Y96.095 E.02033
G1 X105.153 Y95.836 E.02267
G1 X105.764 Y95.643 E.01956
G1 X106.505 Y95.443 E.02344
G1 X107.125 Y95.31 E.01936
G1 X107.625 Y95.223 E.01548
G1 X108.512 Y95.105 E.02731
G1 X109.343 Y95.051 E.02541
G1 X110.175 Y95.034 E.0254
G1 X111.048 Y95.07 E.02664
G1 X112.101 Y95.178 E.0323
G1 X112.797 Y95.293 E.02155
G1 X113.486 Y95.441 E.0215
G1 X114.167 Y95.621 E.0215
G1 X114.839 Y95.833 E.0215
G1 X115.5 Y96.077 E.0215
G1 X116.149 Y96.351 E.02151
G1 X117.094 Y96.817 E.03216
G1 X117.664 Y97.141 E.01999
G1 X118.304 Y97.544 E.02308
G1 X118.881 Y97.948 E.0215
G1 X119.438 Y98.38 E.0215
G1 X119.974 Y98.836 E.0215
G1 X120.488 Y99.318 E.0215
G1 X120.979 Y99.823 E.02151
G1 X121.668 Y100.621 E.03216
G1 X122.098 Y101.183 E.02158
G1 X122.499 Y101.762 E.0215
G1 X122.873 Y102.359 E.0215
G1 X123.218 Y102.973 E.0215
G1 X123.534 Y103.602 E.0215
G1 X123.82 Y104.246 E.0215
G1 X124.076 Y104.903 E.0215
G1 X124.3 Y105.571 E.0215
G1 X124.492 Y106.248 E.0215
G1 X124.653 Y106.934 E.0215
G1 X124.751 Y107.467 E.01652
G1 X124.876 Y108.325 E.02648
G1 X124.922 Y108.839 E.01575
G1 X124.968 Y109.731 E.02724
G1 X124.964 Y110.435 E.0215
G1 X124.927 Y111.135 E.02137
G1 X124.877 Y111.639 E.01548
G1 X124.812 Y112.143 E.01548
G1 X124.654 Y113.042 E.02788
G1 X124.45 Y113.912 E.02728
G1 X124.249 Y114.588 E.0215
G1 X124.032 Y115.213 E.0202
G1 X123.755 Y115.907 E.0228
G1 X123.462 Y116.547 E.0215
G1 X123.139 Y117.173 E.0215
G1 X122.787 Y117.784 E.02151
G1 X122.37 Y118.417 E.02314
G1 X121.875 Y119.11 E.02597
G1 X121.337 Y119.775 E.02612
G1 X120.865 Y120.298 E.0215
G1 X120.372 Y120.794 E.02136
G1 X119.849 Y121.273 E.02164
G1 X119.308 Y121.724 E.0215
G1 X118.746 Y122.149 E.0215
G1 X118.164 Y122.547 E.0215
G1 X117.565 Y122.917 E.0215
G1 X116.949 Y123.259 E.0215
G1 X116.202 Y123.623 E.02534
G1 X115.41 Y123.956 E.02623
G1 X114.68 Y124.219 E.02367
G1 X114.11 Y124.392 E.0182
G1 X113.619 Y124.521 E.01548
G1 X112.745 Y124.713 E.02731
G1 X111.937 Y124.844 E.025
G1 X111.375 Y124.904 E.01723
G1 X110.533 Y124.96 E.02577
G1 X109.956 Y124.967 E.0176
G1 X109.449 Y124.955 E.01548
G1 X108.538 Y124.896 E.02787
G1 X107.586 Y124.773 E.02927
G1 X106.687 Y124.598 E.02796
G1 X106.002 Y124.426 E.02155
G1 X105.328 Y124.222 E.0215
G1 X104.664 Y123.986 E.0215
G1 X104.012 Y123.72 E.0215
G1 X103.373 Y123.423 E.0215
G1 X102.749 Y123.096 E.0215
G1 X102.023 Y122.666 E.02573
G1 X101.263 Y122.155 E.02796
G1 X100.699 Y121.73 E.02155
G1 X100.158 Y121.279 E.0215
G1 X99.757 Y120.913 E.01656
G1 X99.141 Y120.304 E.02644
G1 X98.781 Y119.907 E.01636
G1 X98.136 Y119.124 E.03096
G1 X97.797 Y118.671 E.01727
G1 X97.405 Y118.09 E.0214
G1 X97.038 Y117.488 E.0215
G1 X96.7 Y116.87 E.0215
G1 X96.391 Y116.237 E.0215
G1 X96.127 Y115.622 E.02044
G1 X95.865 Y114.93 E.02256
G1 X95.667 Y114.317 E.01968
G1 X95.464 Y113.58 E.02332
G1 X95.326 Y112.957 E.01947
G1 X95.176 Y112.078 E.02722
G1 X95.074 Y111.149 E.0285
G1 X95.037 Y110.444 E.02155
G1 X95.033 Y109.89 E.01692
G1 X95.061 Y109.036 E.02608
G1 X95.108 Y108.509 E.01615
G1 X95.223 Y107.625 E.02721
G1 X95.421 Y106.601 E.03182
G1 X95.597 Y105.917 E.02155
G1 X95.805 Y105.244 E.0215
