; HEADER_BLOCK_START
; generated by OrcaSlicer 2.3.0 on 2025-12-29 at 15:30:23
; total layer number: 30
;_GP_TOTAL_LAYER_NUMBER_PLACEHOLDER
; filament_density: 1.24
; filament_diameter: 1.75
; max_z_height: 6.00
; HEADER_BLOCK_END

; external perimeters extrusion width = 0.42mm
; perimeters extrusion width = 0.45mm
; infill extrusion width = 0.45mm
; solid infill extrusion width = 0.42mm
; top infill extrusion width = 0.42mm
; support material extrusion width = 0.38mm
; first layer extrusion width = 0.46mm

; EXECUTABLE_BLOCK_START
M201 X2500 Y2500 Z500 E5000
M203 X250 Y250 Z5 E40
M204 P2500 R500 T2500 ; sets acceleration (P, T) and retract acceleration (R), mm/sec^2
M205 X10.00 Y10.00 Z0.40 E5.00 ; sets the jerk limits, mm/sec
;TYPE:Custom
M220 S100 ;Reset Feedrate 
M221 S100 ;Reset Flowrate 
 
M104 S210 ;Set final nozzle temp 
M190 S55 ;Set and wait for bed temp to stabilize 
G28 ;Home 
G92 E0 ;Reset Extruder 
G1 Z2.0 F3000 ;Move Z Axis up 
G1 X-2.1 Y20 Z0.28 F5000.0 ;Move to start position 
M109 S210 ;Wait for nozzle temp to stabilize 
G1 X-2.1 Y145.0 Z0.28 F1500.0 E15 ;Draw the first line 
G1 X-2.4 Y145.0 Z0.28 F5000.0 ;Move to side a little 
G1 X-2.4 Y20 Z0.28 F1500.0 E30 ;Draw the second line 
G92 E0  ;Reset Extruder 
G1 E-1.0000 F1800 ;Retract a bit 
G1 Z2.0 F3000 ;Move Z Axis up 
G1 E0.0000 F1800
G90
G21
M83 ; use relative distances for extrusion
; filament start gcode
M900 K0.115; Override pressure advance value
M106 S0
;LAYER_CHANGE
;Z:0.2
;HEIGHT:0.2
;BEFORE_LAYER_CHANGE
;0.2
G92 E0

G1 E-1 F2400
;_SET_FAN_SPEED_CHANGING_LAYER
M204 P500
; printing object k3d_accuracy_test_v8.stl id:0 copy 0
M204 T500
G1 X71.891 Y146.341 F9000
G1 Z.6
G1 Z.2
G1 E1 F2700
;TYPE:Inner wall
;WIDTH:0.459999
G1 F1800
G1 X72.135 Y146.23 E.00819
G1 X72.322 Y145.981 E.00952
G1 X72.369 Y145.743 E.00739
G1 X72.369 Y144.257 E.04535
G1 X72.335 Y144.056 E.00623
G1 X72.197 Y143.826 E.00818
G1 X71.977 Y143.677 E.0081
G1 X71.743 Y143.631 E.00728
G1 X69.769 Y143.631 E.06026
G1 X69.769 Y40.385 E3.15093
G1 X69.932 Y40.047 E.01147
G1 X70.185 Y39.845 E.00987
G1 X70.542 Y39.769 E.01117
G1 X79.456 Y39.777 E.27202
G1 X79.814 Y39.85 E.01115
G1 X80.01 Y39.989 E.00736
G1 X80.151 Y40.187 E.00738
G1 X80.222 Y40.436 E.00793
G1 X80.231 Y135.085 E2.88854
G1 X79.958 Y135.263 E.00997
G1 X79.601 Y135.425 E.01195
G1 X79.13 Y135.566 E.01502
G1 X78.603 Y135.624 E.01616
G1 X77.149 Y135.632 E.04439
G1 X76.862 Y135.772 E.00972
G1 X76.675 Y136.028 E.00967
G1 X76.631 Y136.257 E.00714
G1 X76.631 Y139.222 E.09048
G1 X76.763 Y139.527 E.01013
G1 X77.012 Y139.718 E.00958
G1 X77.257 Y139.769 E.00764
G1 X179.455 Y139.778 E3.11895
G1 X179.667 Y139.807 E.00654
G1 X179.911 Y139.919 E.00819
G1 X180.151 Y140.187 E.01096
G1 X180.222 Y140.436 E.00792
G1 X180.231 Y149.368 E.27257
G1 X180.178 Y149.757 E.01197
G1 X180.061 Y149.956 E.00706
G1 X179.829 Y150.143 E.00909
G1 X179.441 Y150.231 E.01215
G1 X84.915 Y150.231 E2.88479
G1 X84.737 Y149.958 E.00997
G1 X84.575 Y149.601 E.01195
G1 X84.434 Y149.13 E.01502
G1 X84.376 Y148.603 E.01616
G1 X84.368 Y147.149 E.04439
G1 X84.228 Y146.862 E.00972
G1 X83.972 Y146.675 E.00967
G1 X83.743 Y146.631 E.00714
G1 X80.768 Y146.631 E.09078
G1 X80.463 Y146.771 E.01026
G1 X80.304 Y146.965 E.00764
G1 X80.231 Y147.257 E.00918
G1 X80.231 Y179.369 E.98002
G1 X80.198 Y179.639 E.00828
G1 X80.095 Y179.911 E.0089
G1 X79.861 Y180.114 E.00943
G1 X79.581 Y180.222 E.00917
G1 X70.632 Y180.231 E.27311
G1 X70.243 Y180.178 E.01197
G1 X70.044 Y180.061 E.00706
G1 X69.857 Y179.829 E.00909
G1 X69.769 Y179.441 E.01215
G1 X69.769 Y154.915 E.74848
G1 X70.042 Y154.737 E.00998
G1 X70.399 Y154.575 E.01195
G1 X70.87 Y154.434 E.01502
G1 X71.397 Y154.376 E.01616
G1 X72.851 Y154.368 E.04439
G1 X73.138 Y154.228 E.00972
G1 X73.325 Y153.972 E.00967
G1 X73.369 Y153.743 E.00714
G1 X73.369 Y150.772 E.09065
G1 X73.261 Y150.507 E.00875
G1 X73.051 Y150.313 E.00872
G1 X72.743 Y150.231 E.00973
G1 X40.631 Y150.231 E.98
G1 X40.244 Y150.178 E.01195
G1 X40.044 Y150.061 E.00706
G1 X39.857 Y149.829 E.00909
G1 X39.769 Y149.441 E.01214
G1 X39.777 Y140.544 E.27151
G1 X39.85 Y140.186 E.01115
G1 X39.99 Y139.989 E.00739
G1 X40.187 Y139.849 E.00738
G1 X40.436 Y139.778 E.00791
G1 X65.085 Y139.769 E.75224
G1 X65.263 Y140.042 E.00997
G1 X65.425 Y140.399 E.01195
G1 X65.566 Y140.87 E.01502
G1 X65.624 Y141.394 E.01608
G1 X65.642 Y142.813 E.04331
G1 X65.759 Y143.473 E.02045
G1 X66.09 Y144.319 E.02773
G1 X66.591 Y145.048 E.027
G1 X67.027 Y145.473 E.01857
G1 X67.521 Y145.823 E.01849
G1 X68.066 Y146.091 E.01852
G1 X68.668 Y146.275 E.01922
G1 X69.494 Y146.369 E.02538
G1 X71.83 Y146.369 E.07129
G1 X71.854 Y146.358 E.0008
G1 X71.743 Y145.93 F9000
;TYPE:Outer wall
G1 F1800
G1 X71.86 Y145.889 E.00379
G1 X71.93 Y145.743 E.00493
G1 X71.93 Y144.257 E.04535
G1 X71.891 Y144.142 E.0037
G1 X71.743 Y144.07 E.00502
G1 X69.33 Y144.07 E.07364
G1 X69.33 Y40.588 E3.15811
G1 X69.361 Y40.24 E.01068
G1 X69.517 Y39.883 E.01189
G1 X69.772 Y39.587 E.01192
G1 X70.116 Y39.404 E.0119
G1 X70.518 Y39.33 E.01248
G1 X79.626 Y39.339 E.27797
G1 X80.007 Y39.449 E.0121
G1 X80.325 Y39.675 E.0119
G1 X80.551 Y39.994 E.01193
G1 X80.661 Y40.375 E.01209
G1 X80.67 Y135.323 E2.89768
G1 X80.197 Y135.631 E.01723
G1 X79.774 Y135.829 E.01425
G1 X79.337 Y135.964 E.01397
G1 X78.74 Y136.061 E.01844
G1 X77.256 Y136.07 E.0453
G1 X77.139 Y136.112 E.00379
G1 X77.07 Y136.257 E.00491
G1 X77.07 Y139.143 E.08806
G1 X77.109 Y139.258 E.0037
G1 X77.257 Y139.33 E.00502
G1 X179.626 Y139.339 E3.12415
G1 X180.005 Y139.448 E.01206
G1 X180.325 Y139.675 E.01196
G1 X180.551 Y139.994 E.01194
G1 X180.661 Y140.374 E.01207
G1 X180.67 Y149.368 E.27448
G1 X180.6 Y149.891 E.01609
G1 X180.489 Y150.122 E.00782
G1 X180.229 Y150.403 E.0117
G1 X179.891 Y150.6 E.01195
G1 X179.478 Y150.67 E.01279
G1 X84.677 Y150.67 E2.89317
G1 X84.369 Y150.197 E.01723
G1 X84.171 Y149.774 E.01425
G1 X84.036 Y149.337 E.01397
G1 X83.939 Y148.74 E.01844
G1 X83.93 Y147.256 E.0453
G1 X83.888 Y147.139 E.00379
G1 X83.743 Y147.07 E.00491
G1 X80.857 Y147.07 E.08806
G1 X80.739 Y147.112 E.00382
G1 X80.67 Y147.257 E.00491
G1 X80.67 Y179.369 E.98002
G1 X80.601 Y179.889 E.01601
G1 X80.457 Y180.166 E.00953
G1 X80.229 Y180.411 E.01021
G1 X79.881 Y180.604 E.01215
G1 X79.631 Y180.661 E.00783
G1 X70.632 Y180.67 E.27463
G1 X70.109 Y180.6 E.01609
G1 X69.878 Y180.489 E.00782
G1 X69.597 Y180.229 E.0117
G1 X69.4 Y179.891 E.01195
G1 X69.33 Y179.478 E.01279
G1 X69.33 Y154.677 E.75686
G1 X69.803 Y154.369 E.01723
G1 X70.226 Y154.171 E.01425
G1 X70.663 Y154.036 E.01397
G1 X71.26 Y153.939 E.01844
G1 X72.744 Y153.93 E.0453
G1 X72.861 Y153.888 E.00379
G1 X72.93 Y153.743 E.00491
G1 X72.93 Y150.857 E.08806
G1 X72.876 Y150.726 E.00432
G1 X72.743 Y150.67 E.00442
G1 X40.631 Y150.67 E.98
G1 X40.109 Y150.6 E.01608
G1 X39.878 Y150.489 E.00782
G1 X39.597 Y150.229 E.0117
G1 X39.4 Y149.891 E.01195
G1 X39.33 Y149.478 E.01279
G1 X39.339 Y140.374 E.27783
G1 X39.449 Y139.993 E.01211
G1 X39.676 Y139.674 E.01194
G1 X39.995 Y139.448 E.01193
G1 X40.375 Y139.339 E.01206
G1 X65.323 Y139.33 E.76138
G1 X65.631 Y139.803 E.01723
G1 X65.829 Y140.226 E.01425
G1 X65.996 Y140.782 E.01773
G1 X66.063 Y141.389 E.01863
G1 X66.08 Y142.771 E.0422
G1 X66.171 Y143.321 E.01701
G1 X66.454 Y144.075 E.0246
G1 X66.901 Y144.738 E.02438
G1 X67.284 Y145.118 E.01648
G1 X67.72 Y145.432 E.0164
G1 X68.201 Y145.674 E.01643
G1 X68.72 Y145.839 E.01662
G1 X69.494 Y145.93 E.0238
G1 X71.703 Y145.93 E.0674
G1 E-.7 F2400
;WIPE_START
G1 F1800
G1 X71.86 Y145.889 E-.04877
G1 X71.93 Y145.743 E-.04849
G1 X71.93 Y145.067 E-.20273
;WIPE_END
G17
G3 Z.6 I.001 J1.217 P1  F9000
G1 X129.65 Y145 Z.6
G1 Z.2
G1 E1 F2700
;TYPE:Inner wall
G1 F1800
G1 X128.536 Y143.887 E.04806
G1 X128.232 Y143.457 E.01606
G1 X128.09 Y143.012 E.01425
G1 X128.081 Y142.594 E.01276
G1 X128.207 Y142.107 E.01537
G1 X128.326 Y141.895 E.00742
G1 X128.627 Y141.541 E.01416
G1 X128.863 Y141.369 E.00892
G1 X129.425 Y141.152 E.0184
G1 X129.844 Y141.143 E.01279
G1 X130.333 Y141.269 E.01542
G1 X130.78 Y141.552 E.01614
G1 X131.941 Y142.713 E.0501
G1 X133.164 Y141.501 E.05255
G1 X133.597 Y141.247 E.01532
G1 X133.833 Y141.181 E.00746
G1 X134.345 Y141.143 E.01569
G1 X134.833 Y141.269 E.01539
G1 X135.047 Y141.389 E.00748
G1 X135.401 Y141.692 E.01421
G1 X135.572 Y141.929 E.00892
G1 X135.791 Y142.514 E.01907
G1 X135.757 Y143.107 E.01812
G1 X135.669 Y143.382 E.00881
G1 X135.388 Y143.84 E.01639
G1 X134.228 Y145 E.05008
G1 X135.341 Y146.113 E.04806
G1 X135.639 Y146.529 E.0156
G1 X135.79 Y147.005 E.01525
G1 X135.758 Y147.605 E.01834
G1 X135.667 Y147.885 E.00896
G1 X135.424 Y148.281 E.01418
G1 X135.218 Y148.486 E.00889
G1 X134.824 Y148.728 E.0141
G1 X134.547 Y148.818 E.0089
G1 X134.033 Y148.857 E.01573
G1 X133.544 Y148.731 E.01542
G1 X133.097 Y148.448 E.01614
G1 X131.939 Y147.289 E.05001
G1 X130.825 Y148.402 E.04806
G1 X130.333 Y148.731 E.01805
G1 X129.844 Y148.857 E.01542
G1 X129.34 Y148.827 E.01542
G1 X128.872 Y148.643 E.01536
G1 X128.618 Y148.458 E.00956
G1 X128.452 Y148.279 E.00745
G1 X128.211 Y147.886 E.0141
G1 X128.12 Y147.608 E.0089
G1 X128.087 Y147.008 E.01836
G1 X128.256 Y146.496 E.01645
G1 X128.536 Y146.113 E.01447
G1 X129.621 Y145.028 E.04684
G1 X130.27 Y145 F9000
;TYPE:Outer wall
G1 F1800
G1 X128.846 Y143.576 E.06144
G1 X128.622 Y143.249 E.01211
G1 X128.52 Y142.906 E.01094
G1 X128.529 Y142.537 E.01126
G1 X128.66 Y142.179 E.01162
G1 X129.031 Y141.774 E.01677
G1 X129.501 Y141.584 E.01546
G1 X129.902 Y141.59 E.01224
G1 X130.25 Y141.713 E.01125
G1 X130.515 Y141.908 E.01005
G1 X131.94 Y143.332 E.06147
G1 X133.473 Y141.813 E.06587
G1 X133.867 Y141.618 E.01341
G1 X134.403 Y141.591 E.01639
G1 X134.762 Y141.722 E.01166
G1 X135.167 Y142.096 E.01682
G1 X135.356 Y142.572 E.01562
G1 X135.32 Y143.072 E.01531
G1 X135.049 Y143.558 E.01699
G1 X133.608 Y145 E.06222
G1 X135.031 Y146.424 E.06144
G1 X135.26 Y146.763 E.01249
G1 X135.357 Y147.107 E.01091
G1 X135.313 Y147.611 E.01544
G1 X135.05 Y148.051 E.01564
G1 X134.595 Y148.354 E.01669
G1 X134.048 Y148.418 E.0168
G1 X133.628 Y148.287 E.01344
G1 X133.362 Y148.092 E.01005
G1 X131.939 Y146.669 E.06144
G1 X130.515 Y148.092 E.06144
G1 X130.198 Y148.314 E.01181
G1 X129.844 Y148.419 E.01126
G1 X129.475 Y148.41 E.01126
G1 X129.129 Y148.288 E.01121
G1 X128.826 Y148.05 E.01175
G1 X128.558 Y147.573 E.0167
G1 X128.522 Y147.069 E.01545
G1 X128.651 Y146.689 E.01224
G1 X128.846 Y146.424 E.01005
G1 X130.242 Y145.028 E.06022
G1 E-.7 F2400
;WIPE_START
G1 F1800
G1 X129.549 Y144.307 E-.3
;WIPE_END
G17
G3 Z.6 I.854 J-.867 P1  F9000
G1 X72.414 Y88.061 Z.6
G1 Z.2
G1 E1 F2700
;TYPE:Inner wall
G1 F1800
G1 X71.448 Y86.773 E.04913
G1 X71.256 Y86.426 E.01212
G1 X71.187 Y86.194 E.00738
G1 X71.14 Y85.671 E.01602
G1 X71.184 Y85.44 E.00718
G1 X71.356 Y85.008 E.0142
G1 X71.489 Y84.803 E.00744
G1 X71.86 Y84.464 E.01533
G1 X72.137 Y84.318 E.00956
G1 X72.37 Y84.248 E.00744
G1 X72.937 Y84.203 E.01734
G1 X73.253 Y84.272 E.00988
G1 X73.763 Y84.561 E.01788
G1 X73.942 Y84.721 E.00733
G1 X75.245 Y86.443 E.06588
G1 X77.261 Y86.443 E.06154
G1 X77.656 Y86.498 E.01218
G1 X78.118 Y86.7 E.01538
G1 X78.495 Y87.033 E.01537
G1 X78.631 Y87.236 E.00742
G1 X78.848 Y87.798 E.01839
G1 X78.857 Y88.217 E.0128
G1 X78.731 Y88.704 E.01537
G1 X78.613 Y88.917 E.00742
G1 X78.311 Y89.271 E.01421
G1 X78.073 Y89.444 E.00897
G1 X77.642 Y89.621 E.01421
G1 X77.407 Y89.669 E.00734
G1 X75.248 Y89.678 E.06588
G1 X74.038 Y91.291 E.06154
G1 X73.678 Y91.639 E.01526
G1 X73.252 Y91.851 E.01454
G1 X72.823 Y91.925 E.01326
G1 X72.321 Y91.868 E.01542
G1 X71.861 Y91.66 E.01542
G1 X71.488 Y91.319 E.01542
G1 X71.238 Y90.88 E.01542
G1 X71.137 Y90.385 E.01542
G1 X71.193 Y89.883 E.01542
G1 X71.395 Y89.433 E.01504
G1 X72.39 Y88.093 E.05094
G1 X72.963 Y88.061 F9000
;TYPE:Outer wall
G1 F1800
G1 X71.799 Y86.51 E.05917
G1 X71.624 Y86.152 E.01217
G1 X71.579 Y85.671 E.01475
G1 X71.764 Y85.169 E.01631
G1 X72.065 Y84.852 E.01335
G1 X72.412 Y84.684 E.01175
G1 X72.93 Y84.645 E.01587
G1 X73.14 Y84.701 E.00663
G1 X73.592 Y84.986 E.01632
G1 X75.027 Y86.881 E.07254
G1 X77.261 Y86.881 E.06819
G1 X77.642 Y86.949 E.01181
G1 X77.967 Y87.125 E.01126
G1 X78.226 Y87.404 E.01163
G1 X78.416 Y87.873 E.01546
G1 X78.41 Y88.275 E.01224
G1 X78.279 Y88.632 E.01162
G1 X77.906 Y89.038 E.01683
G1 X77.405 Y89.23 E.01637
G1 X75.028 Y89.241 E.07254
G1 X73.687 Y91.028 E.06819
G1 X73.404 Y91.292 E.01181
G1 X73.069 Y91.446 E.01126
G1 X72.703 Y91.49 E.01126
G1 X72.341 Y91.417 E.01126
G1 X72.019 Y91.237 E.01126
G1 X71.769 Y90.966 E.01126
G1 X71.615 Y90.631 E.01126
G1 X71.572 Y90.264 E.01126
G1 X71.644 Y89.903 E.01125
G1 X71.799 Y89.612 E.01005
G1 X72.939 Y88.093 E.05795
G1 E-.7 F2400
;WIPE_START
G1 F1800
G1 X72.354 Y87.282 E-.3
;WIPE_END
G1 Z.6 F9000
G1 X180.098 Y141.114
G1 Z.6
G1 Z.2
G1 E1 F2700
;TYPE:Bottom surface
;WIDTH:0.461464
G1 F4800
G1 X179.074 Y140.09 E.04435
G1 X178.482 Y140.09 E.01813
G1 X179.911 Y141.519 E.06188
G1 X179.911 Y142.112 E.01815
G1 X177.89 Y140.09 E.08754
G1 X177.298 Y140.09 E.01813
G1 X179.912 Y142.704 E.11321
G1 X179.912 Y143.297 E.01815
G1 X176.706 Y140.09 E.13887
G1 X176.114 Y140.09 E.01813
G1 X179.913 Y143.889 E.16453
G1 X179.914 Y144.482 E.01815
G1 X175.522 Y140.09 E.1902
G1 X174.93 Y140.09 E.01813
G1 X179.914 Y145.074 E.21586
G1 X179.915 Y145.667 E.01815
G1 X174.338 Y140.09 E.24153
G1 X173.746 Y140.09 E.01813
G1 X179.915 Y146.259 E.26719
G1 X179.916 Y146.852 E.01815
G1 X173.154 Y140.09 E.29286
G1 X172.562 Y140.09 E.01813
G1 X179.917 Y147.444 E.31852
G1 X179.917 Y148.037 E.01815
G1 X171.97 Y140.09 E.34418
G1 X171.378 Y140.09 E.01813
G1 X179.918 Y148.629 E.36985
G1 X179.918 Y149.222 E.01815
G1 X170.787 Y140.09 E.39551
G1 X170.195 Y140.09 E.01813
G1 X179.831 Y149.726 E.41739
G1 X179.79 Y149.79 E.00232
G1 X179.654 Y149.878 E.00496
G1 X179.429 Y149.916 E.00698
G1 X169.603 Y140.09 E.42561
G1 X169.011 Y140.09 E.01813
G1 X178.84 Y149.919 E.42571
G1 X178.248 Y149.919 E.01813
G1 X168.419 Y140.089 E.42572
G1 X167.827 Y140.089 E.01813
G1 X177.656 Y149.919 E.42572
G1 X177.064 Y149.919 E.01813
G1 X167.235 Y140.089 E.42572
G1 X166.643 Y140.089 E.01813
G1 X176.472 Y149.919 E.42572
G1 X175.88 Y149.919 E.01813
G1 X166.051 Y140.089 E.42573
G1 X165.459 Y140.089 E.01813
G1 X175.288 Y149.919 E.42573
G1 X174.696 Y149.919 E.01813
G1 X164.867 Y140.089 E.42573
G1 X164.275 Y140.089 E.01813
G1 X174.104 Y149.919 E.42573
G1 X173.513 Y149.919 E.01813
G1 X163.683 Y140.089 E.42573
G1 X163.091 Y140.089 E.01813
G1 X172.921 Y149.919 E.42574
G1 X172.329 Y149.919 E.01813
G1 X162.499 Y140.089 E.42574
G1 X161.907 Y140.089 E.01813
G1 X171.737 Y149.919 E.42574
G1 X171.145 Y149.919 E.01813
G1 X161.315 Y140.089 E.42574
G1 X160.723 Y140.089 E.01813
G1 X170.553 Y149.919 E.42575
G1 X169.961 Y149.919 E.01813
G1 X160.131 Y140.089 E.42575
G1 X159.539 Y140.089 E.01813
G1 X169.369 Y149.919 E.42575
G1 X168.777 Y149.919 E.01813
G1 X158.947 Y140.089 E.42575
G1 X158.355 Y140.089 E.01813
G1 X168.185 Y149.919 E.42576
G1 X167.593 Y149.919 E.01813
G1 X157.763 Y140.089 E.42576
G1 X157.171 Y140.088 E.01813
G1 X167.002 Y149.919 E.42576
G1 X166.41 Y149.919 E.01813
G1 X156.579 Y140.088 E.42576
G1 X155.987 Y140.088 E.01813
G1 X165.818 Y149.919 E.42576
G1 X165.226 Y149.919 E.01813
G1 X155.395 Y140.088 E.42577
G1 X154.804 Y140.088 E.01813
G1 X164.634 Y149.919 E.42577
G1 X164.042 Y149.919 E.01813
G1 X154.212 Y140.088 E.42577
G1 X153.62 Y140.088 E.01813
G1 X163.45 Y149.919 E.42577
G1 X162.858 Y149.919 E.01813
G1 X153.028 Y140.088 E.42578
G1 X152.436 Y140.088 E.01813
G1 X162.266 Y149.919 E.42578
G1 X161.674 Y149.919 E.01813
G1 X151.844 Y140.088 E.42578
G1 X151.252 Y140.088 E.01813
G1 X161.082 Y149.919 E.42578
G1 X160.491 Y149.919 E.01813
G1 X150.66 Y140.088 E.42578
G1 X150.068 Y140.088 E.01813
G1 X159.899 Y149.919 E.42579
G1 X159.307 Y149.919 E.01813
G1 X149.476 Y140.088 E.42579
G1 X148.884 Y140.088 E.01813
G1 X158.715 Y149.919 E.42579
G1 X158.123 Y149.919 E.01813
G1 X148.292 Y140.088 E.42579
G1 X147.7 Y140.088 E.01813
G1 X157.531 Y149.919 E.4258
G1 X156.939 Y149.919 E.01813
G1 X147.108 Y140.088 E.4258
G1 X146.516 Y140.088 E.01813
G1 X156.347 Y149.919 E.4258
G1 X155.755 Y149.919 E.01813
G1 X145.924 Y140.087 E.4258
G1 X145.332 Y140.087 E.01813
