; HEADER_BLOCK_START
; generated by OrcaSlicer 2.3.0 on 2025-12-28 at 14:44:17
; total layer number: 40
;_GP_TOTAL_LAYER_NUMBER_PLACEHOLDER
; filament_density: 1.24
; filament_diameter: 1.75
; max_z_height: 8.00
; HEADER_BLOCK_END

; external perimeters extrusion width = 0.42mm
; perimeters extrusion width = 0.45mm
; infill extrusion width = 0.45mm
; solid infill extrusion width = 0.42mm
; top infill extrusion width = 0.42mm
; support material extrusion width = 0.38mm
; first layer extrusion width = 0.46mm

; EXECUTABLE_BLOCK_START
M201 X2500 Y2500 Z500 E5000
M203 X250 Y250 Z5 E40
M204 P2500 R500 T2500 ; sets acceleration (P, T) and retract acceleration (R), mm/sec^2
M205 X10.00 Y10.00 Z0.40 E5.00 ; sets the jerk limits, mm/sec
;TYPE:Custom
M220 S100 ;Reset Feedrate 
M221 S100 ;Reset Flowrate 
 
M104 S210 ;Set final nozzle temp 
M190 S55 ;Set and wait for bed temp to stabilize 
G28 ;Home 
G92 E0 ;Reset Extruder 
G1 Z2.0 F3000 ;Move Z Axis up 
G1 X-2.1 Y20 Z0.28 F5000.0 ;Move to start position 
M109 S210 ;Wait for nozzle temp to stabilize 
G1 X-2.1 Y145.0 Z0.28 F1500.0 E15 ;Draw the first line 
G1 X-2.4 Y145.0 Z0.28 F5000.0 ;Move to side a little 
G1 X-2.4 Y20 Z0.28 F1500.0 E30 ;Draw the second line 
G92 E0  ;Reset Extruder 
G1 E-1.0000 F1800 ;Retract a bit 
G1 Z2.0 F3000 ;Move Z Axis up 
G1 E0.0000 F1800
G90
G21
M83 ; use relative distances for extrusion
; filament start gcode
M900 K0.115; Override pressure advance value
M106 S0
;LAYER_CHANGE
;Z:0.2
;HEIGHT:0.2
;BEFORE_LAYER_CHANGE
;0.2
G92 E0

G1 E-1 F2400
;_SET_FAN_SPEED_CHANGING_LAYER
M204 P500
; printing object КрышкаРедуктора.stl id:18446744073686950671 copy 0
M204 T500
G1 X85.316 Y82.042 F9000
G1 Z.6
G1 Z.2
G1 E1 F2700
;TYPE:Support
;WIDTH:0.46
G1 F1800
G1 X85.486 Y82.051 E.0052
G1 X85.654 Y82.067 E.00514
G1 X85.821 Y82.093 E.00514
G1 X85.985 Y82.127 E.00514
G1 X86.148 Y82.17 E.00514
G1 X86.309 Y82.221 E.00514
G1 X86.466 Y82.281 E.00514
G1 X86.62 Y82.349 E.00514
G1 X86.771 Y82.424 E.00514
G1 X86.917 Y82.508 E.00514
G1 X87.059 Y82.599 E.00514
G1 X87.126 Y82.646 E.00251
G1 X87.262 Y82.749 E.00521
G1 X87.39 Y82.858 E.00514
G1 X87.513 Y82.974 E.00514
G1 X87.629 Y83.096 E.00514
G1 X87.739 Y83.223 E.00514
G1 X87.842 Y83.357 E.00514
G1 X87.938 Y83.495 E.00514
G1 X87.982 Y83.564 E.00251
G1 X88.068 Y83.712 E.0052
G1 X88.145 Y83.862 E.00514
G1 X88.213 Y84.015 E.00514
G1 X88.274 Y84.172 E.00514
G1 X88.327 Y84.333 E.00514
G1 X88.371 Y84.495 E.00514
G1 X88.406 Y84.66 E.00514
G1 X88.42 Y84.741 E.0025
G1 X88.443 Y84.91 E.00521
G1 X88.456 Y85.078 E.00514
G1 X88.461 Y85.246 E.00514
G1 X88.457 Y85.414 E.00514
G1 X88.444 Y85.582 E.00514
G1 X88.422 Y85.749 E.00514
G1 X88.392 Y85.915 E.00514
G1 X88.374 Y85.995 E.00251
G1 X88.33 Y86.16 E.00521
G1 X88.278 Y86.32 E.00514
G1 X88.218 Y86.477 E.00514
G1 X88.15 Y86.631 E.00514
G1 X88.073 Y86.782 E.00514
G1 X88.033 Y86.853 E.00251
G1 X87.944 Y86.999 E.00521
G1 X87.849 Y87.138 E.00514
G1 X87.746 Y87.271 E.00514
G1 X87.637 Y87.399 E.00514
G1 X87.521 Y87.521 E.00514
G1 X87.399 Y87.637 E.00514
G1 X87.271 Y87.747 E.00514
G1 X87.135 Y87.851 E.0052
G1 X87.068 Y87.898 E.0025
G1 X86.927 Y87.99 E.00514
G1 X86.781 Y88.074 E.00514
G1 X86.631 Y88.15 E.00514
G1 X86.477 Y88.218 E.00514
G1 X86.32 Y88.279 E.00514
G1 X86.159 Y88.33 E.00514
G1 X85.995 Y88.374 E.00521
G1 X85.915 Y88.392 E.0025
G1 X85.749 Y88.423 E.00514
G1 X85.582 Y88.445 E.00514
G1 X85.414 Y88.458 E.00514
G1 X85.246 Y88.462 E.00514
G1 X85.077 Y88.457 E.00514
G1 X84.909 Y88.443 E.00514
G1 X84.74 Y88.421 E.00521
G1 X84.659 Y88.407 E.0025
G1 X84.495 Y88.371 E.00514
G1 X84.332 Y88.327 E.00514
G1 X84.172 Y88.275 E.00514
G1 X84.015 Y88.214 E.00514
G1 X83.861 Y88.145 E.00514
G1 X83.711 Y88.068 E.00514
G1 X83.564 Y87.982 E.00521
G1 X83.495 Y87.938 E.0025
G1 X83.356 Y87.843 E.00514
G1 X83.223 Y87.74 E.00514
G1 X83.095 Y87.63 E.00514
G1 X82.973 Y87.513 E.00514
G1 X82.858 Y87.391 E.00514
G1 X82.749 Y87.262 E.00514
G1 X82.646 Y87.127 E.0052
G1 X82.599 Y87.059 E.00251
G1 X82.507 Y86.918 E.00514
G1 X82.424 Y86.771 E.00514
G1 X82.348 Y86.621 E.00514
G1 X82.28 Y86.467 E.00514
G1 X82.221 Y86.309 E.00514
G1 X82.169 Y86.149 E.00514
G1 X82.126 Y85.984 E.00521
G1 X82.108 Y85.904 E.00251
G1 X82.078 Y85.738 E.00514
G1 X82.057 Y85.571 E.00514
G1 X82.045 Y85.403 E.00514
G1 X82.041 Y85.234 E.00514
G1 X82.047 Y85.066 E.00514
G1 X82.061 Y84.898 E.00514
G1 X82.084 Y84.729 E.0052
G1 X82.099 Y84.648 E.00251
G1 X82.135 Y84.484 E.00514
G1 X82.179 Y84.322 E.00514
G1 X82.232 Y84.162 E.00514
G1 X82.293 Y84.005 E.00514
G1 X82.363 Y83.851 E.00514
G1 X82.44 Y83.702 E.00514
G1 X82.527 Y83.555 E.00521
G1 X82.571 Y83.486 E.00249
G1 X82.674 Y83.339 E.00548
G1 X82.78 Y83.204 E.00524
G1 X82.868 Y83.102 E.00412
G1 X82.991 Y82.973 E.00542
G1 X83.096 Y82.873 E.00444
G1 X83.232 Y82.756 E.00548
G1 X83.352 Y82.664 E.00463
G1 X83.485 Y82.572 E.00492
G1 X83.554 Y82.527 E.00251
G1 X83.701 Y82.441 E.00521
G1 X83.851 Y82.363 E.00514
G1 X84.004 Y82.294 E.00514
G1 X84.161 Y82.233 E.00514
G1 X84.321 Y82.18 E.00514
G1 X84.4 Y82.157 E.0025
G1 X84.565 Y82.116 E.00521
G1 X84.731 Y82.084 E.00514
G1 X84.898 Y82.061 E.00514
G1 X85.066 Y82.047 E.00514
G1 X85.234 Y82.042 E.00514
G1 X85.253 Y82.042 E.0006
G1 X87.756 Y86.941 F9000
G1 F1800
G1 X87.756 Y83.926 E.09202
G1 X87.738 Y83.892 E.00118
G1 X87.661 Y83.76 E.00467
G1 X87.625 Y83.703 E.00206
G1 X87.539 Y83.578 E.00461
G1 X87.448 Y83.461 E.00454
G1 X87.351 Y83.348 E.00454
G1 X87.292 Y83.287 E.00259
G1 X87.292 Y87.217 E.11996
G1 X87.255 Y87.256 E.00164
G1 X87.148 Y87.358 E.00454
G1 X87.034 Y87.455 E.00454
G1 X86.913 Y87.548 E.00467
G1 X86.858 Y87.587 E.00205
G1 X86.829 Y87.606 E.00105
G1 X86.829 Y82.898 E.14368
G1 X86.722 Y82.829 E.00387
G1 X86.593 Y82.755 E.00454
G1 X86.46 Y82.688 E.00454
G1 X86.366 Y82.646 E.00316
G1 X86.366 Y87.857 E.15902
G1 X86.334 Y87.871 E.00107
G1 X86.195 Y87.925 E.00454
G1 X86.053 Y87.97 E.00454
G1 X85.905 Y88.01 E.00468
G1 X85.902 Y88.01 E.00009
G1 X85.902 Y82.493 E.16838
G1 X85.9 Y82.493 E.00008
G1 X85.754 Y82.462 E.00454
G1 X85.607 Y82.44 E.00454
G1 X85.459 Y82.425 E.00454
G1 X85.439 Y82.424 E.00062
G1 X85.439 Y88.079 E.17259
G1 X85.395 Y88.083 E.00134
G1 X85.246 Y88.086 E.00454
G1 X85.097 Y88.082 E.00454
G1 X84.975 Y88.072 E.00374
G1 X84.975 Y82.432 E.17214
G1 X84.939 Y82.435 E.00111
G1 X84.792 Y82.455 E.00454
G1 X84.646 Y82.483 E.00454
G1 X84.512 Y82.516 E.00421
G1 X84.512 Y87.987 E.16697
G1 X84.44 Y87.967 E.00228
G1 X84.298 Y87.921 E.00454
G1 X84.16 Y87.867 E.00454
G1 X84.048 Y87.818 E.00372
G1 X84.048 Y82.686 E.15661
G1 X84.015 Y82.701 E.00113
G1 X83.883 Y82.77 E.00454
G1 X83.75 Y82.847 E.00468
G1 X83.693 Y82.884 E.00206
G1 X83.585 Y82.959 E.00403
G1 X83.585 Y87.544 E.13993
G1 X83.578 Y87.539 E.00026
G1 X83.46 Y87.448 E.00454
G1 X83.347 Y87.352 E.00454
G1 X83.24 Y87.249 E.00454
G1 X83.138 Y87.14 E.00454
G1 X83.122 Y87.121 E.00077
G1 X83.122 Y83.382 E.11411
G1 X83.07 Y83.442 E.00243
G1 X82.975 Y83.562 E.00465
G1 X82.883 Y83.695 E.00494
G1 X82.847 Y83.751 E.00203
G1 X82.769 Y83.883 E.00468
G1 X82.701 Y84.015 E.00454
G1 X82.658 Y84.109 E.00316
G1 X82.658 Y86.803 E.0822
G1 E-.7 F2400
;WIPE_START
G1 F1800
G1 X82.658 Y85.803 E-.3
;WIPE_END
G17
G3 Z.6 I-1.144 J-.414 P1  F9000
G1 X75.071 Y106.791 Z.6
G1 Z.2
G1 E1 F2700
G1 F1800
G1 X75.241 Y106.8 E.0052
G1 X75.409 Y106.817 E.00514
G1 X75.575 Y106.843 E.00514
G1 X75.74 Y106.877 E.00514
G1 X75.903 Y106.92 E.00514
G1 X76.063 Y106.972 E.00514
G1 X76.22 Y107.032 E.00514
G1 X76.374 Y107.1 E.00514
G1 X76.525 Y107.176 E.00514
G1 X76.671 Y107.26 E.00514
G1 X76.812 Y107.351 E.00514
G1 X76.879 Y107.398 E.00251
G1 X77.015 Y107.502 E.00521
G1 X77.143 Y107.611 E.00514
G1 X77.266 Y107.727 E.00514
G1 X77.382 Y107.849 E.00514
G1 X77.491 Y107.977 E.00514
G1 X77.594 Y108.11 E.00514
G1 X77.69 Y108.249 E.00514
G1 X77.734 Y108.318 E.00251
G1 X77.819 Y108.466 E.00521
G1 X77.896 Y108.616 E.00514
G1 X77.964 Y108.769 E.00514
G1 X78.025 Y108.927 E.00514
G1 X78.077 Y109.087 E.00514
G1 X78.121 Y109.249 E.00514
G1 X78.156 Y109.414 E.00514
G1 X78.17 Y109.495 E.0025
G1 X78.192 Y109.664 E.0052
G1 X78.205 Y109.832 E.00514
G1 X78.21 Y110.001 E.00514
G1 X78.205 Y110.169 E.00514
G1 X78.192 Y110.337 E.00514
G1 X78.17 Y110.504 E.00514
G1 X78.139 Y110.669 E.00514
G1 X78.1 Y110.835 E.00521
G1 X78.077 Y110.914 E.0025
G1 X78.025 Y111.074 E.00514
G1 X77.964 Y111.232 E.00514
G1 X77.896 Y111.385 E.00514
G1 X77.819 Y111.535 E.00514
G1 X77.734 Y111.683 E.0052
G1 X77.69 Y111.752 E.00251
G1 X77.594 Y111.891 E.00514
G1 X77.491 Y112.024 E.00514
G1 X77.382 Y112.152 E.00514
G1 X77.266 Y112.274 E.00514
G1 X77.143 Y112.39 E.00514
G1 X77.015 Y112.499 E.00514
G1 X76.879 Y112.603 E.00521
G1 X76.812 Y112.65 E.00251
G1 X76.671 Y112.741 E.00514
G1 X76.525 Y112.825 E.00514
G1 X76.374 Y112.901 E.00514
G1 X76.22 Y112.969 E.00514
G1 X76.063 Y113.029 E.00514
G1 X75.903 Y113.081 E.00514
G1 X75.738 Y113.125 E.00521
G1 X75.658 Y113.142 E.00251
G1 X75.492 Y113.172 E.00514
G1 X75.325 Y113.194 E.00514
G1 X75.157 Y113.207 E.00514
G1 X74.988 Y113.21 E.00514
G1 X74.82 Y113.205 E.00514
G1 X74.652 Y113.191 E.00514
G1 X74.483 Y113.169 E.0052
G1 X74.402 Y113.154 E.00251
G1 X74.238 Y113.119 E.00514
G1 X74.075 Y113.074 E.00514
G1 X73.915 Y113.022 E.00514
G1 X73.758 Y112.961 E.00514
G1 X73.605 Y112.891 E.00514
G1 X73.455 Y112.814 E.00514
G1 X73.308 Y112.728 E.0052
G1 X73.238 Y112.684 E.00251
G1 X73.1 Y112.588 E.00514
G1 X72.967 Y112.485 E.00514
G1 X72.84 Y112.375 E.00514
G1 X72.718 Y112.258 E.00514
G1 X72.603 Y112.135 E.00514
G1 X72.494 Y112.007 E.00514
G1 X72.391 Y111.871 E.00521
G1 X72.344 Y111.803 E.00251
G1 X72.253 Y111.661 E.00513
G1 X72.17 Y111.515 E.00514
G1 X72.094 Y111.364 E.00514
G1 X72.027 Y111.21 E.00514
G1 X71.967 Y111.053 E.00514
G1 X71.916 Y110.892 E.00514
G1 X71.873 Y110.727 E.00521
G1 X71.856 Y110.647 E.0025
G1 X71.825 Y110.47 E.00548
G1 X71.804 Y110.3 E.00524
G1 X71.794 Y110.165 E.00411
G1 X71.79 Y109.988 E.00542
G1 X71.794 Y109.842 E.00444
G1 X71.808 Y109.663 E.00548
G1 X71.827 Y109.513 E.00463
G1 X71.856 Y109.354 E.00492
G1 X71.873 Y109.274 E.00251
G1 X71.916 Y109.109 E.00521
G1 X71.967 Y108.948 E.00514
G1 X72.027 Y108.791 E.00514
G1 X72.094 Y108.637 E.00514
G1 X72.17 Y108.486 E.00514
G1 X72.253 Y108.34 E.00514
G1 X72.344 Y108.198 E.00514
G1 X72.391 Y108.13 E.0025
G1 X72.494 Y107.995 E.00521
G1 X72.603 Y107.866 E.00514
G1 X72.718 Y107.743 E.00514
G1 X72.84 Y107.626 E.00514
G1 X72.967 Y107.516 E.00514
G1 X73.1 Y107.413 E.00514
G1 X73.239 Y107.317 E.00514
G1 X73.308 Y107.273 E.0025
G1 X73.455 Y107.187 E.00521
G1 X73.605 Y107.11 E.00514
G1 X73.758 Y107.04 E.00514
G1 X73.915 Y106.979 E.00514
G1 X74.075 Y106.927 E.00514
G1 X74.154 Y106.904 E.0025
G1 X74.32 Y106.864 E.00521
G1 X74.485 Y106.832 E.00514
G1 X74.652 Y106.81 E.00514
G1 X74.82 Y106.796 E.00514
G1 X74.988 Y106.791 E.00514
G1 X75.008 Y106.791 E.0006
G1 X77.561 Y111.606 F9000
G1 F1800
G1 X77.561 Y108.786 E.08606
G1 X77.557 Y108.778 E.00026
G1 X77.489 Y108.645 E.00454
G1 X77.413 Y108.513 E.00468
G1 X77.377 Y108.456 E.00205
G1 X77.291 Y108.331 E.00462
G1 X77.2 Y108.213 E.00454
G1 X77.103 Y108.1 E.00454
G1 X77.097 Y108.094 E.00027
G1 X77.097 Y111.907 E.11637
G1 X77.001 Y112.008 E.00427
G1 X76.892 Y112.111 E.00454
G1 X76.779 Y112.207 E.00454
G1 X76.657 Y112.3 E.00468
G1 X76.634 Y112.317 E.00089
G1 X76.634 Y107.684 E.14137
G1 X76.602 Y107.662 E.00117
G1 X76.475 Y107.58 E.00462
G1 X76.346 Y107.506 E.00454
G1 X76.214 Y107.439 E.00454
G1 X76.17 Y107.42 E.00145
G1 X76.17 Y112.581 E.15751
G1 X76.078 Y112.622 E.00309
G1 X75.939 Y112.675 E.00454
G1 X75.797 Y112.721 E.00454
G1 X75.707 Y112.744 E.00285
G1 X75.707 Y107.257 E.16748
G1 X75.653 Y107.242 E.00169
G1 X75.508 Y107.212 E.00454
G1 X75.361 Y107.189 E.00454
G1 X75.243 Y107.177 E.0036
G1 X75.243 Y112.824 E.17232
G1 X75.139 Y112.831 E.00321
G1 X74.99 Y112.835 E.00454
G1 X74.841 Y112.83 E.00454
G1 X74.78 Y112.825 E.00187
G1 X74.78 Y107.176 E.17242
G1 X74.693 Y107.183 E.00267
G1 X74.546 Y107.203 E.00454
G1 X74.399 Y107.23 E.00454
G1 X74.317 Y107.251 E.0026
G1 X74.317 Y112.751 E.16786
G1 X74.183 Y112.715 E.00421
G1 X74.042 Y112.668 E.00454
G1 X73.904 Y112.614 E.00454
G1 X73.853 Y112.592 E.00169
G1 X73.853 Y107.409 E.15815
G1 X73.768 Y107.448 E.00285
G1 X73.636 Y107.516 E.00454
G1 X73.503 Y107.593 E.00468
G1 X73.447 Y107.629 E.00205
G1 X73.39 Y107.669 E.00212
G1 X73.39 Y112.332 E.1423
G1 X73.323 Y112.285 E.0025
G1 X73.205 Y112.194 E.00454
G1 X73.092 Y112.097 E.00454
G1 X72.985 Y111.994 E.00454
G1 X72.926 Y111.931 E.00262
G1 X72.926 Y108.07 E.11785
G1 X72.883 Y108.116 E.00192
G1 X72.787 Y108.229 E.00454
G1 X72.695 Y108.351 E.00468
G1 X72.656 Y108.406 E.00205
G1 X72.575 Y108.534 E.00462
G1 X72.501 Y108.663 E.00454
G1 X72.463 Y108.739 E.00259
G1 X72.463 Y111.641 E.08856
G1 E-.7 F2400
;WIPE_START
G1 F1800
G1 X72.463 Y110.641 E-.3
;WIPE_END
G17
G3 Z.6 I-1.036 J.638 P1  F9000
G1 X85.328 Y131.54 Z.6
G1 Z.2
G1 E1 F2700
G1 F1800
G1 X85.498 Y131.549 E.00521
G1 X85.665 Y131.566 E.00514
G1 X85.832 Y131.592 E.00514
G1 X85.997 Y131.627 E.00514
G1 X86.159 Y131.67 E.00514
G1 X86.32 Y131.722 E.00514
G1 X86.477 Y131.783 E.00514
G1 X86.631 Y131.851 E.00514
G1 X86.781 Y131.927 E.00514
G1 X86.853 Y131.967 E.00251
G1 X86.998 Y132.056 E.00521
G1 X87.137 Y132.152 E.00514
G1 X87.271 Y132.254 E.00514
G1 X87.399 Y132.364 E.00514
G1 X87.521 Y132.48 E.00514
G1 X87.637 Y132.602 E.00514
G1 X87.746 Y132.73 E.00514
G1 X87.85 Y132.865 E.0052
G1 X87.897 Y132.932 E.0025
G1 X87.989 Y133.074 E.00514
G1 X88.073 Y133.219 E.00514
G1 X88.15 Y133.37 E.00514
G1 X88.218 Y133.524 E.00514
G1 X88.278 Y133.681 E.00514
G1 X88.33 Y133.841 E.00514
G1 X88.374 Y134.006 E.0052
G1 X88.392 Y134.086 E.0025
G1 X88.422 Y134.252 E.00514
G1 X88.444 Y134.419 E.00514
G1 X88.457 Y134.587 E.00514
G1 X88.461 Y134.755 E.00514
G1 X88.456 Y134.923 E.00514
G1 X88.443 Y135.091 E.00514
G1 X88.42 Y135.26 E.00521
G1 X88.406 Y135.341 E.0025
G1 X88.371 Y135.506 E.00514
G1 X88.327 Y135.668 E.00514
G1 X88.274 Y135.828 E.00514
G1 X88.213 Y135.986 E.00514
G1 X88.145 Y136.139 E.00514
G1 X88.068 Y136.289 E.00514
G1 X87.982 Y136.437 E.00521
G1 X87.938 Y136.506 E.0025
G1 X87.842 Y136.644 E.00514
G1 X87.739 Y136.778 E.00514
G1 X87.629 Y136.905 E.00514
G1 X87.513 Y137.027 E.00514
G1 X87.39 Y137.143 E.00514
G1 X87.262 Y137.252 E.00514
G1 X87.126 Y137.355 E.00521
G1 X87.059 Y137.402 E.00251
G1 X86.917 Y137.493 E.00514
G1 X86.771 Y137.577 E.00514
G1 X86.62 Y137.652 E.00514
G1 X86.466 Y137.72 E.00514
G1 X86.309 Y137.78 E.00514
G1 X86.148 Y137.831 E.00514
G1 X85.983 Y137.875 E.0052
G1 X85.903 Y137.892 E.00251
G1 X85.737 Y137.922 E.00514
G1 X85.57 Y137.943 E.00514
G1 X85.402 Y137.956 E.00514
G1 X85.234 Y137.959 E.00514
G1 X85.066 Y137.954 E.00514
G1 X84.898 Y137.94 E.00514
G1 X84.729 Y137.916 E.0052
G1 X84.648 Y137.902 E.00251
G1 X84.483 Y137.866 E.00514
G1 X84.321 Y137.821 E.00514
G1 X84.161 Y137.768 E.00514
G1 X84.004 Y137.707 E.00514
G1 X83.851 Y137.637 E.00514
G1 X83.701 Y137.56 E.00514
G1 X83.554 Y137.474 E.0052
G1 X83.485 Y137.43 E.0025
G1 X83.338 Y137.327 E.00548
G1 X83.203 Y137.221 E.00524
G1 X83.101 Y137.133 E.00411
G1 X82.973 Y137.01 E.00542
G1 X82.873 Y136.904 E.00444
G1 X82.756 Y136.768 E.00548
G1 X82.663 Y136.648 E.00462
G1 X82.571 Y136.516 E.00492
G1 X82.527 Y136.446 E.00251
G1 X82.44 Y136.299 E.00521
G1 X82.363 Y136.15 E.00514
G1 X82.294 Y135.996 E.00514
G1 X82.232 Y135.839 E.00514
G1 X82.179 Y135.679 E.00514
G1 X82.135 Y135.517 E.00514
G1 X82.099 Y135.353 E.00514
G1 X82.084 Y135.272 E.00251
G1 X82.061 Y135.103 E.0052
G1 X82.047 Y134.935 E.00514
G1 X82.041 Y134.767 E.00514
G1 X82.045 Y134.598 E.00514
G1 X82.057 Y134.43 E.00514
G1 X82.078 Y134.263 E.00514
G1 X82.108 Y134.097 E.00514
G1 X82.126 Y134.017 E.00251
G1 X82.169 Y133.852 E.00521
G1 X82.221 Y133.692 E.00514
G1 X82.28 Y133.534 E.00514
G1 X82.348 Y133.38 E.00514
G1 X82.424 Y133.23 E.00514
G1 X82.507 Y133.083 E.00514
G1 X82.599 Y132.942 E.00514
G1 X82.646 Y132.875 E.0025
G1 X82.749 Y132.739 E.0052
G1 X82.858 Y132.61 E.00514
G1 X82.973 Y132.488 E.00514
G1 X83.095 Y132.371 E.00514
G1 X83.223 Y132.261 E.00514
G1 X83.356 Y132.158 E.00514
G1 X83.495 Y132.063 E.00514
G1 X83.564 Y132.019 E.0025
