; HEADER_BLOCK_START
; generated by OrcaSlicer 2.3.0 on 2025-12-28 at 14:38:37
; total layer number: 55
;_GP_TOTAL_LAYER_NUMBER_PLACEHOLDER
; filament_density: 1.24
; filament_diameter: 1.75
; max_z_height: 11.00
; HEADER_BLOCK_END

; external perimeters extrusion width = 0.42mm
; perimeters extrusion width = 0.45mm
; infill extrusion width = 0.45mm
; solid infill extrusion width = 0.42mm
; top infill extrusion width = 0.42mm
; support material extrusion width = 0.38mm
; first layer extrusion width = 0.46mm

; EXECUTABLE_BLOCK_START
M201 X2500 Y2500 Z500 E5000
M203 X250 Y250 Z5 E40
M204 P2500 R500 T2500 ; sets acceleration (P, T) and retract acceleration (R), mm/sec^2
M205 X10.00 Y10.00 Z0.40 E5.00 ; sets the jerk limits, mm/sec
;TYPE:Custom
M220 S100 ;Reset Feedrate 
M221 S100 ;Reset Flowrate 
 
M104 S210 ;Set final nozzle temp 
M190 S55 ;Set and wait for bed temp to stabilize 
G28 ;Home 
G92 E0 ;Reset Extruder 
G1 Z2.0 F3000 ;Move Z Axis up 
G1 X-2.1 Y20 Z0.28 F5000.0 ;Move to start position 
M109 S210 ;Wait for nozzle temp to stabilize 
G1 X-2.1 Y145.0 Z0.28 F1500.0 E15 ;Draw the first line 
G1 X-2.4 Y145.0 Z0.28 F5000.0 ;Move to side a little 
G1 X-2.4 Y20 Z0.28 F1500.0 E30 ;Draw the second line 
G92 E0  ;Reset Extruder 
G1 E-1.0000 F1800 ;Retract a bit 
G1 Z2.0 F3000 ;Move Z Axis up 
G1 E0.0000 F1800
G90
G21
M83 ; use relative distances for extrusion
; filament start gcode
M900 K0.115; Override pressure advance value
M106 S0
;LAYER_CHANGE
;Z:0.2
;HEIGHT:0.2
;BEFORE_LAYER_CHANGE
;0.2
G92 E0

G1 E-1 F2400
;_SET_FAN_SPEED_CHANGING_LAYER
M204 P500
; printing object Сепаратор.stl id:0 copy 0
M204 T500
G1 X84.883 Y91.224 F9000
G1 Z.6
G1 Z.2
G1 E1 F2700
;TYPE:Support
;WIDTH:0.46
G1 F1800
G1 X85.33 Y91.275 E.01371
G1 X86.179 Y91.549 E.02723
G1 X86.966 Y92.023 E.02804
G1 X87.625 Y92.663 E.02804
G1 X88.12 Y93.433 E.02793
G1 X88.297 Y93.924 E.01592
G1 X88.431 Y94.309 E.01244
G1 X88.503 Y94.937 E.01931
G1 X88.349 Y95.158 E.00822
G1 X88.346 Y95.161 E.00011
G1 X88.097 Y95.532 E.01364
G1 X88.095 Y95.535 E.00011
G1 X87.852 Y95.91 E.01364
G1 X87.85 Y95.913 E.00011
G1 X87.613 Y96.292 E.01364
G1 X87.611 Y96.296 E.00011
G1 X87.381 Y96.679 E.01364
G1 X87.379 Y96.682 E.00011
G1 X87.156 Y97.069 E.01364
G1 X87.154 Y97.072 E.00011
G1 X86.937 Y97.463 E.01364
G1 X86.936 Y97.466 E.00011
G1 X86.725 Y97.861 E.01364
G1 X86.724 Y97.864 E.00011
G1 X86.521 Y98.262 E.01364
G1 X86.519 Y98.265 E.00011
G1 X86.322 Y98.667 E.01364
G1 X86.321 Y98.67 E.00011
G1 X86.247 Y98.829 E.00534
G1 X86.166 Y98.877 E.00287
G1 X85.291 Y99.157 E.02803
G1 X84.376 Y99.231 E.02801
G1 X83.469 Y99.095 E.028
G1 X82.616 Y98.758 E.02798
G1 X81.899 Y98.261 E.02662
G1 X81.581 Y97.944 E.01372
G1 X81.231 Y97.53 E.01654
G1 X80.825 Y96.803 E.02542
G1 X80.67 Y96.361 E.01427
G1 X80.557 Y95.89 E.01479
G1 X80.508 Y95.457 E.0133
G1 X80.507 Y94.976 E.01468
G1 X80.556 Y94.539 E.0134
G1 X80.666 Y94.074 E.01459
G1 X80.811 Y93.657 E.01348
G1 X81.025 Y93.231 E.01454
G1 X81.28 Y92.826 E.01461
G1 X81.868 Y92.18 E.02666
G1 X82.625 Y91.658 E.02806
G1 X83.48 Y91.323 E.02805
G1 X84.369 Y91.193 E.0274
G1 X84.821 Y91.22 E.01382
G1 X87.756 Y95.713 F9000
G1 F1800
G1 X87.756 Y93.561 E.0657
G1 X87.333 Y92.902 E.02388
G1 X87.292 Y92.863 E.00172
G1 X87.292 Y96.098 E.09871
G1 X87.29 Y96.101 E.00012
G1 X87.059 Y96.487 E.01374
G1 X87.055 Y96.493 E.00021
G1 X86.83 Y96.883 E.01374
G1 X86.829 Y96.885 E.00007
G1 X86.829 Y92.413 E.13646
G1 X86.735 Y92.322 E.00398
G1 X86.366 Y92.1 E.01318
G1 X86.366 Y97.74 E.17214
G1 X86.185 Y98.093 E.01209
G1 X86.182 Y98.099 E.00021
G1 X85.985 Y98.504 E.01374
G1 X85.982 Y98.51 E.00021
G1 X85.964 Y98.548 E.00127
G1 X85.902 Y98.567 E.00198
G1 X85.902 Y91.854 E.20487
G1 X85.439 Y91.705 E.01486
G1 X85.439 Y98.715 E.21396
G1 X85.218 Y98.786 E.00708
G1 X84.975 Y98.806 E.00742
G1 X84.975 Y91.612 E.21953
G1 X84.851 Y91.598 E.00382
G1 X84.512 Y91.578 E.01036
G1 X84.512 Y98.843 E.22173
G1 X84.389 Y98.853 E.00377
G1 X84.048 Y98.802 E.0105
G1 X84.048 Y91.619 E.21922
G1 X83.585 Y91.687 E.01429
G1 X83.585 Y98.733 E.21504
G1 X83.567 Y98.73 E.00057
G1 X83.122 Y98.554 E.01461
G1 X83.122 Y91.867 E.20409
G1 X82.802 Y91.992 E.01047
G1 X82.658 Y92.091 E.00534
G1 X82.658 Y98.33 E.19041
G1 X82.195 Y98.01 E.0172
G1 X82.195 Y92.41 E.17089
G1 X82.116 Y92.465 E.00291
G1 X81.731 Y92.887 E.01745
G1 X81.731 Y97.541 E.14202
G1 X81.541 Y97.315 E.009
G1 X81.268 Y96.826 E.01711
G1 X81.268 Y93.197 E.11073
G1 E-.7 F2400
;WIPE_START
G1 F1800
G1 X81.268 Y94.197 E-.3
;WIPE_END
G17
G3 Z.6 I-1.216 J-.037 P1  F9000
G1 X80.921 Y105.583 Z.6
G1 Z.2
G1 E1 F2700
G1 F1800
G1 X81.354 Y105.633 E.0133
G1 X82.202 Y105.906 E.02719
G1 X82.989 Y106.379 E.02803
G1 X83.649 Y107.018 E.02804
G1 X83.882 Y107.379 E.0131
G1 X83.853 Y107.687 E.00944
G1 X83.852 Y107.691 E.0001
G1 X83.812 Y108.196 E.01548
G1 X83.812 Y108.2 E.00013
G1 X83.785 Y108.647 E.01365
G1 X83.785 Y108.651 E.00011
G1 X83.766 Y109.097 E.01364
G1 X83.765 Y109.101 E.00011
G1 X83.754 Y109.548 E.01364
G1 X83.754 Y109.551 E.00011
G1 X83.75 Y109.998 E.01364
G1 X83.75 Y110.002 E.00011
G1 X83.754 Y110.449 E.01364
G1 X83.754 Y110.452 E.00011
G1 X83.765 Y110.899 E.01364
G1 X83.766 Y110.903 E.00011
G1 X83.785 Y111.349 E.01364
G1 X83.785 Y111.353 E.00011
G1 X83.808 Y111.739 E.01179
G1 X83.808 Y111.742 E.0001
G1 X83.817 Y111.858 E.00356
G1 X83.655 Y112.109 E.0091
G1 X83.37 Y112.395 E.01235
G1 X82.978 Y112.765 E.01644
G1 X82.199 Y113.233 E.02774
G1 X81.325 Y113.514 E.02802
G1 X80.41 Y113.589 E.028
G1 X79.503 Y113.455 E.02799
G1 X78.65 Y113.12 E.02799
G1 X77.93 Y112.624 E.02669
G1 X77.601 Y112.296 E.01416
G1 X77.26 Y111.891 E.01614
G1 X76.853 Y111.164 E.02543
G1 X76.695 Y110.712 E.01463
G1 X76.584 Y110.248 E.01454
G1 X76.534 Y109.808 E.01353
G1 X76.534 Y109.333 E.01449
G1 X76.584 Y108.891 E.01356
G1 X76.693 Y108.429 E.01449
G1 X76.84 Y108.01 E.01355
G1 X77.054 Y107.586 E.01452
G1 X77.308 Y107.182 E.01457
G1 X77.896 Y106.537 E.02662
G1 X78.652 Y106.017 E.02801
G1 X79.506 Y105.681 E.028
G1 X80.395 Y105.551 E.02741
G1 X80.859 Y105.58 E.01419
G1 X83.122 Y112.371 F9000
G1 F1800
G1 X83.122 Y107.03 E.16302
G1 X82.759 Y106.679 E.0154
G1 X82.658 Y106.618 E.0036
G1 X82.658 Y112.52 E.18012
G1 X82.195 Y112.797 E.01649
G1 X82.195 Y106.34 E.19708
G1 X82.046 Y106.25 E.0053
G1 X81.731 Y106.149 E.01008
G1 X81.731 Y112.989 E.20874
G1 X81.268 Y113.138 E.01486
G1 X81.268 Y106.001 E.21781
G1 X80.888 Y105.957 E.01166
G1 X80.804 Y105.952 E.00256
G1 X80.804 Y113.18 E.22058
G1 X80.422 Y113.212 E.0117
G1 X80.341 Y113.2 E.00251
G1 X80.341 Y105.938 E.22161
G1 X79.878 Y106.006 E.01429
G1 X79.878 Y113.131 E.21745
G1 X79.6 Y113.09 E.00856
G1 X79.414 Y113.017 E.0061
G1 X79.414 Y106.12 E.21048
G1 X78.951 Y106.302 E.01519
G1 X78.951 Y112.835 E.19936
G1 X78.827 Y112.786 E.00406
G1 X78.487 Y112.552 E.01259
G1 X78.487 Y106.585 E.1821
G1 X78.144 Y106.822 E.01272
G1 X78.024 Y106.954 E.00545
G1 X78.024 Y112.187 E.15973
G1 X77.878 Y112.041 E.00631
G1 X77.57 Y111.677 E.01455
G1 X77.561 Y111.66 E.0006
G1 X77.561 Y107.485 E.12739
G1 X77.381 Y107.77 E.01027
G1 X77.186 Y108.158 E.01323
G1 X77.097 Y108.412 E.00824
G1 X77.097 Y111.216 E.08556
G1 E-.7 F2400
;WIPE_START
G1 F1800
G1 X77.097 Y110.216 E-.3
;WIPE_END
G17
G3 Z.6 I-.983 J.718 P1  F9000
G1 X84.839 Y120.821 Z.6
G1 Z.2
G1 E1 F2700
G1 F1800
G1 X85.229 Y120.886 E.01207
G1 X86.066 Y121.196 E.02726
G1 X86.343 Y121.376 E.01009
G1 X86.492 Y121.68 E.01033
G1 X86.494 Y121.683 E.0001
G1 X86.723 Y122.135 E.01548
G1 X86.725 Y122.139 E.00013
G1 X86.936 Y122.534 E.01365
G1 X86.937 Y122.537 E.00011
G1 X87.125 Y122.875 E.01179
G1 X87.126 Y122.878 E.0001
G1 X87.379 Y123.317 E.01548
G1 X87.381 Y123.321 E.00013
G1 X87.611 Y123.704 E.01365
G1 X87.613 Y123.708 E.00011
G1 X87.85 Y124.087 E.01364
G1 X87.852 Y124.09 E.00011
G1 X88.062 Y124.414 E.01179
G1 X88.064 Y124.417 E.0001
G1 X88.346 Y124.838 E.01548
G1 X88.348 Y124.841 E.00013
G1 X88.374 Y124.878 E.00137
G1 X88.38 Y124.928 E.00154
G1 X88.282 Y125.846 E.02817
G1 X87.985 Y126.72 E.02816
G1 X87.505 Y127.508 E.02815
G1 X86.875 Y128.159 E.02766
G1 X86.517 Y128.404 E.01324
G1 X86.085 Y128.681 E.01567
G1 X85.234 Y129.004 E.02775
G1 X84.323 Y129.134 E.0281
G1 X83.405 Y129.062 E.02811
G1 X82.524 Y128.791 E.02812
G1 X81.723 Y128.334 E.02815
G1 X81.067 Y127.736 E.0271
G1 X80.745 Y127.313 E.01622
G1 X80.515 Y126.946 E.01322
G1 X80.308 Y126.499 E.01503
G1 X80.165 Y126.089 E.01325
G1 X80.06 Y125.611 E.01495
G1 X80.012 Y125.175 E.01338
G1 X80.013 Y124.691 E.01478
G1 X80.065 Y124.249 E.01358
G1 X80.169 Y123.784 E.01454
G1 X80.321 Y123.356 E.01386
G1 X80.533 Y122.901 E.01534
G1 X81.034 Y122.183 E.02671
G1 X81.709 Y121.563 E.02797
G1 X82.503 Y121.105 E.02797
G1 X83.378 Y120.83 E.02799
G1 X84.278 Y120.754 E.02757
G1 X84.776 Y120.814 E.01531
G1 X87.756 Y126.736 F9000
G1 F1800
G1 X87.756 Y124.631 E.06423
G1 X87.751 Y124.624 E.00025
G1 X87.748 Y124.619 E.00019
G1 X87.536 Y124.293 E.01189
G1 X87.532 Y124.287 E.00021
G1 X87.294 Y123.905 E.01373
G1 X87.292 Y123.902 E.00009
G1 X87.292 Y127.135 E.09867
G1 X87.206 Y127.277 E.00505
G1 X86.829 Y127.667 E.01658
G1 X86.829 Y123.114 E.13898
G1 X86.8 Y123.063 E.00176
G1 X86.797 Y123.058 E.00019
G1 X86.608 Y122.718 E.01189
G1 X86.605 Y122.711 E.00021
G1 X86.393 Y122.314 E.01375
G1 X86.39 Y122.307 E.00024
G1 X86.366 Y122.26 E.00162
G1 X86.366 Y128.053 E.17682
G1 X86.31 Y128.091 E.00205
G1 X85.915 Y128.344 E.01431
G1 X85.902 Y128.349 E.00043
G1 X85.902 Y121.537 E.20789
G1 X85.897 Y121.534 E.0002
G1 X85.439 Y121.364 E.01491
G1 X85.439 Y128.525 E.21853
G1 X85.14 Y128.638 E.00974
G1 X84.975 Y128.661 E.00509
G1 X84.975 Y121.224 E.22697
G1 X84.785 Y121.193 E.00587
G1 X84.512 Y121.16 E.00841
G1 X84.512 Y128.728 E.23096
G1 X84.311 Y128.756 E.00619
G1 X84.048 Y128.736 E.00804
G1 X84.048 Y121.15 E.2315
G1 X83.585 Y121.19 E.01419
G1 X83.585 Y128.7 E.2292
G1 X83.476 Y128.691 E.00335
G1 X83.122 Y128.582 E.0113
G1 X83.122 Y121.304 E.22211
G1 X82.658 Y121.45 E.01482
G1 X82.658 Y128.436 E.2132
G1 X82.195 Y128.171 E.01629
G1 X82.195 Y121.716 E.19699
G1 X81.933 Y121.868 E.00923
G1 X81.731 Y122.052 E.00834
G1 X81.731 Y127.833 E.17643
G1 X81.345 Y127.481 E.01595
G1 X81.268 Y127.38 E.00389
G1 X81.268 Y122.504 E.14881
G1 X80.86 Y123.089 E.02177
G1 X80.804 Y123.207 E.004
G1 X80.804 Y127.054 E.1174
G1 E-.7 F2400
;WIPE_START
G1 F1800
G1 X80.804 Y126.054 E-.3
;WIPE_END
G17
G3 Z.6 I-.444 J1.133 P1  F9000
G1 X95.237 Y131.704 Z.6
G1 Z.2
G1 E1 F2700
G1 F1800
G1 X95.345 Y131.778 E.00399
G1 X95.348 Y131.78 E.00011
G1 X95.721 Y132.026 E.01364
G1 X95.724 Y132.028 E.00011
G1 X96.101 Y132.268 E.01364
G1 X96.104 Y132.27 E.00011
G1 X96.485 Y132.504 E.01364
G1 X96.488 Y132.505 E.00011
G1 X96.873 Y132.732 E.01364
G1 X96.877 Y132.734 E.00011
G1 X97.266 Y132.954 E.01364
G1 X97.269 Y132.956 E.00011
G1 X97.661 Y133.169 E.01364
G1 X97.665 Y133.171 E.00011
G1 X98.061 Y133.378 E.01364
G1 X98.064 Y133.38 E.00011
G1 X98.464 Y133.579 E.01364
G1 X98.467 Y133.581 E.00011
G1 X98.616 Y133.652 E.00502
G1 X98.879 Y134.073 E.01515
G1 X99.184 Y134.946 E.02821
G1 X99.291 Y135.864 E.02821
G1 X99.194 Y136.783 E.0282
G1 X98.899 Y137.658 E.02819
G1 X98.419 Y138.446 E.02817
G1 X97.788 Y139.1 E.02772
G1 X97.404 Y139.363 E.01421
G1 X96.996 Y139.623 E.01478
G1 X96.146 Y139.946 E.02775
G1 X95.232 Y140.076 E.02817
G1 X94.311 Y140.003 E.02819
G1 X93.428 Y139.73 E.02822
G1 X92.625 Y139.27 E.02826
G1 X91.969 Y138.668 E.02715
G1 X91.652 Y138.25 E.01602
G1 X91.418 Y137.875 E.0135
G1 X91.217 Y137.439 E.01464
G1 X91.071 Y137.015 E.0137
G1 X90.971 Y136.554 E.01439
G1 X90.922 Y136.099 E.01398
G1 X90.924 Y135.637 E.01408
G1 X90.979 Y135.172 E.01431
G1 X91.077 Y134.733 E.01371
G1 X91.24 Y134.28 E.01469
G1 X91.437 Y133.856 E.01429
G1 X91.932 Y133.14 E.02654
G1 X92.604 Y132.518 E.02795
G1 X93.395 Y132.056 E.02797
G1 X94.27 Y131.777 E.02801
G1 X95.171 Y131.697 E.02763
G1 X95.175 Y131.697 E.0001
G1 X98.878 Y137.133 F9000
G1 F1800
G1 X98.878 Y135.56 E.04803
G1 X98.816 Y135.03 E.01626
G1 X98.538 Y134.237 E.02567
G1 X98.414 Y134.039 E.00712
G1 X98.414 Y137.732 E.11271
G1 X98.12 Y138.216 E.01729
G1 X97.951 Y138.391 E.00743
G1 X97.951 Y133.743 E.14186
G1 X97.895 Y133.715 E.00191
G1 X97.889 Y133.711 E.00021
G1 X97.49 Y133.503 E.01374
G1 X97.488 Y133.502 E.00007
G1 X97.488 Y138.851 E.16325
G1 X97.197 Y139.05 E.01073
G1 X97.024 Y139.16 E.00626
G1 X97.024 Y133.249 E.1804
G1 X96.69 Y133.06 E.01171
G1 X96.684 Y133.057 E.00021
G1 X96.561 Y132.984 E.00438
G1 X96.561 Y139.387 E.19541
G1 X96.097 Y139.563 E.01513
G1 X96.097 Y132.706 E.20924
G1 X95.907 Y132.59 E.00683
G1 X95.901 Y132.586 E.00021
G1 X95.634 Y132.416 E.00965
G1 X95.634 Y139.64 E.22045
G1 X95.22 Y139.699 E.01276
G1 X95.171 Y139.695 E.00152
G1 X95.171 Y132.113 E.23139
G1 X95.139 Y132.092 E.00114
G1 X95.134 Y132.089 E.00021
G1 X95.119 Y132.078 E.00056
G1 X94.707 Y132.115 E.01261
G1 X94.707 Y139.658 E.23021
G1 X94.382 Y139.633 E.00995
G1 X94.244 Y139.59 E.00443
G1 X94.244 Y132.179 E.22615
G1 X93.78 Y132.327 E.01485
G1 X93.78 Y139.446 E.21727
G1 X93.578 Y139.384 E.00645
G1 X93.317 Y139.234 E.00921
G1 X93.317 Y132.536 E.2044
G1 X92.853 Y132.807 E.01637
G1 X92.853 Y138.968 E.18803
G1 X92.848 Y138.965 E.0002
G1 X92.39 Y138.545 E.01896
G1 X92.39 Y133.228 E.16227
G1 X92.217 Y133.388 E.00719
G1 X91.927 Y133.808 E.0156
G1 X91.927 Y137.981 E.12733
G1 X91.749 Y137.696 E.01023
G1 X91.566 Y137.299 E.01334
G1 X91.463 Y137 E.00966
G1 X91.463 Y134.245 E.08408
G1 E-.7 F2400
;WIPE_START
G1 F1800
G1 X91.463 Y135.245 E-.3
;WIPE_END
G17
G3 Z.6 I-.068 J1.215 P1  F9000
G1 X107.972 Y136.172 Z.6
G1 Z.2
G1 E1 F2700
G1 F1800
G1 X107.976 Y136.172 E.00011
G1 X108.422 Y136.203 E.01364
G1 X108.426 Y136.203 E.00011
G1 X108.872 Y136.226 E.01364
G1 X108.876 Y136.226 E.00011
G1 X109.322 Y136.241 E.01364
G1 X109.326 Y136.241 E.00011
G1 X109.773 Y136.249 E.01364
G1 X109.777 Y136.249 E.00011
G1 X110.223 Y136.249 E.01364
G1 X110.227 Y136.249 E.00011
G1 X110.674 Y136.241 E.01364
G1 X110.678 Y136.241 E.00011
G1 X111.124 Y136.226 E.01364
G1 X111.128 Y136.226 E.00011
G1 X111.574 Y136.203 E.01364
G1 X111.578 Y136.203 E.00011
G1 X111.684 Y136.195 E.00325
G1 X112.261 Y136.564 E.0209
G1 X112.912 Y137.222 E.02825
G1 X113.404 Y138.007 E.02825
G1 X113.71 Y138.88 E.02825
G1 X113.818 Y139.799 E.02824
G1 X113.722 Y140.719 E.02822
G1 X113.426 Y141.594 E.02821
G1 X112.946 Y142.384 E.0282
G1 X112.314 Y143.039 E.02777
G1 X111.911 Y143.314 E.01491
G1 X111.519 Y143.562 E.01415
G1 X110.669 Y143.884 E.02775
G1 X109.753 Y144.014 E.02823
G1 X108.83 Y143.94 E.02826
G1 X107.945 Y143.664 E.0283
G1 X107.141 Y143.2 E.02835
G1 X106.487 Y142.596 E.02716
G1 X106.177 Y142.186 E.01568
G1 X105.938 Y141.799 E.01388
G1 X105.744 Y141.378 E.01415
G1 X105.594 Y140.937 E.01422
G1 X105.498 Y140.496 E.01378
G1 X105.448 Y140.02 E.0146
G1 X105.45 Y139.582 E.01337
G1 X105.509 Y139.093 E.01503
G1 X105.608 Y138.648 E.01392
G1 X105.93 Y137.847 E.02633
G1 X106.446 Y137.093 E.02791
G1 X107.115 Y136.467 E.02795
G1 X107.662 Y136.145 E.01937
G1 X107.91 Y136.166 E.00758
G1 X113.244 Y141.533 F9000
G1 F1800
G1 X113.244 Y138.685 E.08692
G1 X113.063 Y138.17 E.01663
G1 X112.781 Y137.719 E.01627
G1 X112.781 Y141.933 E.12863
G1 X112.647 Y142.153 E.00784
G1 X112.317 Y142.495 E.0145
G1 X112.317 Y137.154 E.163
G1 X112.024 Y136.858 E.01272
G1 X111.854 Y136.749 E.00616
G1 X111.854 Y142.898 E.18766
G1 X111.705 Y143 E.00551
G1 X111.39 Y143.2 E.01136
G1 X111.39 Y136.588 E.20177
G1 X111.146 Y136.601 E.00747
G1 X111.139 Y136.601 E.00021
G1 X110.927 Y136.608 E.00648
G1 X110.927 Y143.385 E.20682
G1 X110.575 Y143.518 E.01148
G1 X110.463 Y143.534 E.00344
G1 X110.463 Y136.62 E.211
G1 X110.232 Y136.624 E.00706
G1 X110.225 Y136.624 E.00021
G1 X110 Y136.624 E.00687
G1 X110 Y143.6 E.21288
G1 X109.742 Y143.636 E.00795
G1 X109.537 Y143.62 E.00629
G1 X109.537 Y136.62 E.21362
G1 X109.318 Y136.617 E.00667
G1 X109.311 Y136.616 E.00021
G1 X109.073 Y136.608 E.00726
G1 X109.073 Y143.583 E.21285
G1 X108.902 Y143.569 E.00524
G1 X108.61 Y143.478 E.00935
G1 X108.61 Y136.588 E.21027
G1 X108.405 Y136.578 E.00627
G1 X108.398 Y136.577 E.00021
G1 X108.146 Y136.56 E.00769
G1 X108.146 Y143.334 E.20673
G1 X108.097 Y143.318 E.00159
G1 X107.683 Y143.079 E.01458
