; HEADER_BLOCK_START
; generated by OrcaSlicer 2.3.0 on 2025-12-28 at 14:37:23
; total layer number: 40
;_GP_TOTAL_LAYER_NUMBER_PLACEHOLDER
; filament_density: 1.24
; filament_diameter: 1.75
; max_z_height: 8.00
; HEADER_BLOCK_END

; external perimeters extrusion width = 0.42mm
; perimeters extrusion width = 0.45mm
; infill extrusion width = 0.45mm
; solid infill extrusion width = 0.42mm
; top infill extrusion width = 0.42mm
; support material extrusion width = 0.38mm
; first layer extrusion width = 0.46mm

; EXECUTABLE_BLOCK_START
M201 X2500 Y2500 Z500 E5000
M203 X250 Y250 Z5 E40
M204 P2500 R500 T2500 ; sets acceleration (P, T) and retract acceleration (R), mm/sec^2
M205 X10.00 Y10.00 Z0.40 E5.00 ; sets the jerk limits, mm/sec
;TYPE:Custom
M220 S100 ;Reset Feedrate 
M221 S100 ;Reset Flowrate 
 
M104 S210 ;Set final nozzle temp 
M190 S55 ;Set and wait for bed temp to stabilize 
G28 ;Home 
G92 E0 ;Reset Extruder 
G1 Z2.0 F3000 ;Move Z Axis up 
G1 X-2.1 Y20 Z0.28 F5000.0 ;Move to start position 
M109 S210 ;Wait for nozzle temp to stabilize 
G1 X-2.1 Y145.0 Z0.28 F1500.0 E15 ;Draw the first line 
G1 X-2.4 Y145.0 Z0.28 F5000.0 ;Move to side a little 
G1 X-2.4 Y20 Z0.28 F1500.0 E30 ;Draw the second line 
G92 E0  ;Reset Extruder 
G1 E-1.0000 F1800 ;Retract a bit 
G1 Z2.0 F3000 ;Move Z Axis up 
G1 E0.0000 F1800
G90
G21
M83 ; use relative distances for extrusion
; filament start gcode
M900 K0.115; Override pressure advance value
M106 S0
;LAYER_CHANGE
;Z:0.2
;HEIGHT:0.2
;BEFORE_LAYER_CHANGE
;0.2
G92 E0

G1 E-1 F2400
;_SET_FAN_SPEED_CHANGING_LAYER
M204 P500
; printing object СепараторКрышка.stl id:15 copy 0
M204 T500
G1 X99.852 Y94.692 F9000
G1 Z.6
G1 Z.2
G1 E1 F2700
;TYPE:Support
;WIDTH:0.46
G1 F1800
G1 X100.797 Y98.216 E.11136
G1 X98.216 Y100.797 E.11136
G1 X94.692 Y99.852 E.11136
G1 X93.748 Y96.328 E.11136
G1 X96.328 Y93.748 E.11136
G1 X99.792 Y94.676 E.10945
G1 X100.268 Y98.479 F9000
G1 F1800
G1 X100.268 Y97.695 E.02395
G1 X99.805 Y95.965 E.05464
G1 X99.805 Y98.677 E.08278
G1 X99.341 Y99.141 E.02
G1 X99.341 Y94.944 E.12809
G1 X98.878 Y94.819 E.01464
G1 X98.878 Y99.604 E.14603
G1 X98.414 Y100.068 E.02
G1 X98.414 Y94.695 E.16396
G1 X97.951 Y94.571 E.01464
G1 X97.951 Y100.337 E.17596
G1 X97.488 Y100.213 E.01464
G1 X97.488 Y94.447 E.17596
G1 X97.024 Y94.323 E.01464
G1 X97.024 Y100.089 E.17596
G1 X96.561 Y99.964 E.01464
G1 X96.561 Y94.199 E.17596
G1 X96.44 Y94.166 E.00382
G1 X96.097 Y94.509 E.01478
G1 X96.097 Y99.84 E.16271
G1 X95.634 Y99.716 E.01464
G1 X95.634 Y94.972 E.14478
G1 X95.171 Y95.436 E.02
G1 X95.171 Y99.592 E.12684
G1 X94.998 Y99.546 E.00544
G1 X94.707 Y98.458 E.03435
G1 X94.707 Y95.899 E.07811
G1 X94.244 Y96.362 E.02
G1 X94.244 Y97.454 E.03332
G1 E-.7 F2400
;WIPE_START
G1 F1800
G1 X94.244 Y96.454 E-.3
;WIPE_END
G17
G3 Z.6 I-1.178 J.305 P1  F9000
G1 X100.797 Y121.784 Z.6
G1 Z.2
G1 E1 F2700
G1 F1800
G1 X99.852 Y125.308 E.11136
G1 X96.328 Y126.252 E.11136
G1 X93.748 Y123.672 E.11136
G1 X94.692 Y120.148 E.11136
G1 X98.216 Y119.203 E.11136
G1 X100.752 Y121.739 E.10945
G1 X100.268 Y123.031 F9000
G1 F1800
G1 X100.268 Y121.786 E.03798
G1 X99.805 Y121.323 E.02
G1 X99.805 Y124.035 E.08278
G1 X99.546 Y125.002 E.03054
G1 X99.341 Y125.056 E.00646
G1 X99.341 Y120.859 E.12809
G1 X98.878 Y120.396 E.02
G1 X98.878 Y125.181 E.14603
G1 X98.414 Y125.305 E.01464
G1 X98.414 Y119.932 E.16396
G1 X98.104 Y119.622 E.01339
G1 X97.951 Y119.663 E.00484
G1 X97.951 Y125.429 E.17596
G1 X97.488 Y125.553 E.01464
G1 X97.488 Y119.787 E.17596
G1 X97.024 Y119.911 E.01464
G1 X97.024 Y125.677 E.17596
G1 X96.561 Y125.801 E.01464
G1 X96.561 Y120.036 E.17596
G1 X96.097 Y120.16 E.01464
G1 X96.097 Y125.491 E.16271
G1 X95.634 Y125.028 E.02
G1 X95.634 Y120.284 E.14478
G1 X95.171 Y120.408 E.01464
G1 X95.171 Y124.564 E.12684
G1 X94.707 Y124.101 E.02
G1 X94.707 Y121.542 E.07811
G1 X94.244 Y123.271 E.05464
G1 X94.244 Y123.903 E.01929
G1 E-.7 F2400
;WIPE_START
G1 F1800
G1 X94.244 Y123.271 E-.18959
G1 X94.339 Y122.916 E-.11041
;WIPE_END
G17
G3 Z.6 I.108 J1.212 P1  F9000
G1 X125.308 Y120.148 Z.6
G1 Z.2
G1 E1 F2700
G1 F1800
G1 X126.252 Y123.672 E.11136
G1 X123.672 Y126.252 E.11136
G1 X120.148 Y125.308 E.11136
G1 X119.203 Y121.784 E.11136
G1 X121.784 Y119.203 E.11136
G1 X125.248 Y120.132 E.10945
G1 X125.756 Y123.903 F9000
G1 F1800
G1 X125.756 Y123.271 E.01929
G1 X125.293 Y121.542 E.05464
G1 X125.293 Y124.101 E.07811
G1 X124.829 Y124.564 E.02
G1 X124.829 Y120.408 E.12684
G1 X124.366 Y120.284 E.01464
G1 X124.366 Y125.028 E.14478
G1 X123.903 Y125.491 E.02
G1 X123.903 Y120.16 E.16271
G1 X123.439 Y120.036 E.01464
G1 X123.439 Y125.801 E.17596
G1 X122.976 Y125.677 E.01464
G1 X122.976 Y119.911 E.17596
G1 X122.512 Y119.787 E.01464
G1 X122.512 Y125.553 E.17596
G1 X122.049 Y125.429 E.01464
G1 X122.049 Y119.663 E.17596
G1 X121.896 Y119.622 E.00484
G1 X121.586 Y119.932 E.01339
G1 X121.586 Y125.305 E.16396
G1 X121.122 Y125.181 E.01464
G1 X121.122 Y120.396 E.14603
G1 X120.659 Y120.859 E.02
G1 X120.659 Y125.056 E.12809
G1 X120.454 Y125.002 E.00646
G1 X120.195 Y124.035 E.03054
G1 X120.195 Y121.323 E.08278
G1 X119.732 Y121.786 E.02
G1 X119.732 Y123.031 E.03798
G1 E-.7 F2400
;WIPE_START
G1 F1800
G1 X119.732 Y122.031 E-.3
;WIPE_END
G17
G3 Z.6 I1.18 J.299 P1  F9000
G1 X126.252 Y96.328 Z.6
G1 Z.2
G1 E1 F2700
G1 F1800
G1 X125.308 Y99.852 E.11136
G1 X121.784 Y100.797 E.11136
G1 X119.203 Y98.216 E.11136
G1 X120.148 Y94.692 E.11136
G1 X123.672 Y93.748 E.11136
G1 X126.208 Y96.283 E.10945
G1 X125.756 Y97.454 F9000
G1 F1800
G1 X125.756 Y96.362 E.03332
G1 X125.293 Y95.899 E.02
G1 X125.293 Y98.458 E.07811
G1 X125.002 Y99.546 E.03435
G1 X124.829 Y99.592 E.00544
G1 X124.829 Y95.436 E.12684
G1 X124.366 Y94.972 E.02
G1 X124.366 Y99.716 E.14478
G1 X123.903 Y99.84 E.01464
G1 X123.903 Y94.509 E.16271
G1 X123.56 Y94.166 E.01478
G1 X123.439 Y94.199 E.00382
G1 X123.439 Y99.964 E.17596
G1 X122.976 Y100.089 E.01464
G1 X122.976 Y94.323 E.17596
G1 X122.512 Y94.447 E.01464
G1 X122.512 Y100.213 E.17596
G1 X122.049 Y100.337 E.01464
G1 X122.049 Y94.571 E.17596
G1 X121.586 Y94.695 E.01464
G1 X121.586 Y100.068 E.16396
G1 X121.122 Y99.604 E.02
G1 X121.122 Y94.819 E.14603
G1 X120.659 Y94.944 E.01464
G1 X120.659 Y99.141 E.12809
G1 X120.195 Y98.677 E.02
G1 X120.195 Y95.965 E.08278
G1 X119.732 Y97.695 E.05464
G1 X119.732 Y98.479 E.02395
G1 E-.7 F2400
;WIPE_START
G1 F1800
G1 X119.732 Y97.695 E-.23546
G1 X119.788 Y97.487 E-.06454
;WIPE_END
G17
G3 Z.6 I-.846 J-.875 P1  F9000
G1 X92.088 Y124.244 Z.6
G1 Z.2
G1 E1 F2700
;TYPE:Inner wall
;WIDTH:0.459999
G1 F1800
G1 X91.389 Y123.311 E.03557
G1 X90.919 Y122.628 E.02532
G1 X90.253 Y121.558 E.03845
G1 X89.847 Y120.836 E.02528
G1 X89.211 Y119.557 E.04361
G1 X88.781 Y118.561 E.0331
G1 X88.484 Y117.785 E.02535
G1 X88.089 Y116.593 E.03831
G1 X87.722 Y115.216 E.04352
G1 X87.5 Y114.157 E.03301
G1 X87.306 Y112.917 E.03829
G1 X87.18 Y111.67 E.03826
G1 X87.123 Y110.416 E.0383
G1 X87.127 Y109.414 E.03058
G1 X87.18 Y108.331 E.0331
G1 X87.306 Y107.081 E.03834
G1 X87.456 Y106.09 E.03058
G1 X87.638 Y105.168 E.0287
G1 X87.994 Y103.738 E.04497
G1 X88.285 Y102.794 E.03012
G1 X88.508 Y102.154 E.02069
G1 X88.943 Y101.048 E.03627
G1 X89.491 Y99.858 E.03998
G1 X90.046 Y98.802 E.03644
G1 X90.691 Y97.724 E.03832
G1 X91.258 Y96.877 E.0311
G1 X91.894 Y96.01 E.03281
G1 X92.333 Y95.45 E.02174
;WIDTH:0.457709
G1 X92.687 Y95.038 E.01646
;WIDTH:0.480177
G1 X93.249 Y94.428 E.02655
;WIDTH:0.48586
G1 X94.127 Y93.538 E.04051
G1 X95.045 Y92.681 E.04071
;WIDTH:0.457419
G1 X95.684 Y92.142 E.02536
;WIDTH:0.459999
G1 X96.689 Y91.389 E.03831
G1 X97.372 Y90.919 E.02532
G1 X98.441 Y90.253 E.03844
G1 X99.164 Y89.847 E.02528
G1 X100.443 Y89.211 E.04361
G1 X101.439 Y88.781 E.0331
G1 X102.215 Y88.484 E.02535
G1 X103.408 Y88.089 E.03835
G1 X104.618 Y87.761 E.03826
G1 X105.847 Y87.499 E.03836
G1 X106.665 Y87.363 E.02532
G1 X107.913 Y87.214 E.03835
G1 X109.164 Y87.134 E.03826
G1 X110.421 Y87.123 E.03835
G1 X111.25 Y87.153 E.02532
G1 X112.502 Y87.256 E.03835
G1 X113.744 Y87.427 E.03826
G1 X114.975 Y87.666 E.03826
G1 X116.128 Y87.957 E.0363
G1 X117.351 Y88.334 E.03905
G1 X117.846 Y88.508 E.016
G1 X118.952 Y88.943 E.03627
G1 X120.142 Y89.491 E.03998
G1 X121.198 Y90.046 E.03644
G1 X122.276 Y90.691 E.03832
G1 X123.123 Y91.258 E.0311
G1 X123.99 Y91.894 E.03281
G1 X124.55 Y92.333 E.02174
;WIDTH:0.457708
G1 X124.962 Y92.687 E.01646
;WIDTH:0.480176
G1 X125.572 Y93.249 E.02655
;WIDTH:0.48586
G1 X126.462 Y94.127 E.04051
G1 X127.319 Y95.045 E.0407
;WIDTH:0.457419
G1 X127.86 Y95.683 E.02537
;WIDTH:0.459999
G1 X128.611 Y96.689 E.03831
G1 X129.081 Y97.372 E.02532
G1 X129.747 Y98.442 E.03845
G1 X130.153 Y99.164 E.02528
G1 X130.789 Y100.443 E.04361
G1 X131.219 Y101.439 E.0331
G1 X131.516 Y102.215 E.02535
G1 X131.911 Y103.407 E.03831
G1 X132.278 Y104.784 E.04352
G1 X132.5 Y105.843 E.03301
G1 X132.694 Y107.083 E.03829
G1 X132.818 Y108.306 E.03754
G1 X132.877 Y109.602 E.03958
G1 X132.873 Y110.586 E.03003
G1 X132.82 Y111.669 E.0331
G1 X132.694 Y112.919 E.03834
G1 X132.544 Y113.91 E.03058
G1 X132.334 Y114.974 E.03311
G1 X132.043 Y116.128 E.03632
G1 X131.666 Y117.351 E.03905
G1 X131.492 Y117.846 E.016
G1 X131.057 Y118.952 E.03627
G1 X130.509 Y120.142 E.03998
G1 X129.954 Y121.198 E.03644
G1 X129.309 Y122.276 E.03832
G1 X128.742 Y123.123 E.0311
G1 X128.106 Y123.99 E.03281
G1 X127.667 Y124.55 E.02174
;WIDTH:0.457708
G1 X127.313 Y124.962 E.01646
;WIDTH:0.480176
G1 X126.751 Y125.572 E.02655
;WIDTH:0.485861
G1 X125.873 Y126.462 E.0405
G1 X124.955 Y127.319 E.0407
;WIDTH:0.457419
G1 X124.317 Y127.86 E.02537
;WIDTH:0.459999
G1 X123.311 Y128.611 E.03831
G1 X122.628 Y129.081 E.02532
G1 X121.558 Y129.747 E.03845
G1 X120.836 Y130.153 E.02528
G1 X119.557 Y130.789 E.04361
G1 X118.561 Y131.219 E.0331
G1 X117.785 Y131.516 E.02535
G1 X116.593 Y131.911 E.03831
G1 X115.216 Y132.278 E.04352
G1 X114.157 Y132.5 E.03301
G1 X112.917 Y132.694 E.03829
G1 X111.67 Y132.82 E.03826
G1 X110.416 Y132.877 E.0383
G1 X109.414 Y132.873 E.03058
G1 X108.331 Y132.82 E.0331
G1 X107.081 Y132.694 E.03834
G1 X106.09 Y132.544 E.03058
G1 X105.026 Y132.334 E.03311
G1 X104.229 Y132.134 E.02507
G1 X103.573 Y131.956 E.02074
G1 X102.794 Y131.716 E.02487
G1 X102.154 Y131.492 E.02069
G1 X101.048 Y131.057 E.03627
G1 X99.858 Y130.509 E.03998
G1 X98.802 Y129.954 E.03644
G1 X97.724 Y129.309 E.03832
G1 X96.877 Y128.742 E.0311
G1 X96.01 Y128.106 E.03281
G1 X95.45 Y127.667 E.02174
;WIDTH:0.457708
G1 X95.038 Y127.313 E.01646
;WIDTH:0.480176
G1 X94.428 Y126.751 E.02655
;WIDTH:0.485861
G1 X93.538 Y125.873 E.0405
G1 X92.681 Y124.955 E.04071
;WIDTH:0.457419
G1 X92.142 Y124.316 E.02536
;WIDTH:0.459999
G1 X92.112 Y124.276 E.00152
G1 X91.742 Y124.503 F9000
;TYPE:Outer wall
G1 F1800
G1 X91.034 Y123.568 E.03581
G1 X90.552 Y122.868 E.02593
G1 X89.875 Y121.782 E.03906
G1 X89.46 Y121.041 E.02592
G1 X88.813 Y119.741 E.0443
G1 X88.374 Y118.726 E.03375
G1 X88.071 Y117.932 E.02595
G1 X87.669 Y116.719 E.03901
G1 X87.295 Y115.317 E.04427
G1 X87.068 Y114.236 E.03371
G1 X86.87 Y112.973 E.03901
G1 X86.742 Y111.702 E.03899
G1 X86.684 Y110.425 E.03901
G1 X86.689 Y109.403 E.03121
G1 X86.742 Y108.298 E.03374
G1 X86.87 Y107.026 E.03902
G1 X87.024 Y106.015 E.03121
G1 X87.238 Y104.93 E.03375
G1 X87.55 Y103.69 E.03902
G1 X87.849 Y102.711 E.03125
G1 X88.07 Y102.07 E.02068
G1 X88.538 Y100.88 E.03903
G1 X89.069 Y99.718 E.039
G1 X89.664 Y98.587 E.03899
G1 X90.32 Y97.49 E.03901
G1 X90.888 Y96.639 E.03121
G1 X91.542 Y95.748 E.03375
G1 X92.351 Y94.757 E.03903
G1 X92.918 Y94.124 E.02594
G1 X93.814 Y93.212 E.03902
G1 X94.759 Y92.35 E.03902
G1 X95.412 Y91.806 E.02593
G1 X96.432 Y91.034 E.03906
G1 X97.132 Y90.552 E.02593
G1 X98.218 Y89.875 E.03905
G1 X98.959 Y89.46 E.02592
G1 X100.259 Y88.813 E.0443
G1 X101.274 Y88.374 E.03375
G1 X102.068 Y88.071 E.02595
G1 X103.281 Y87.669 E.03902
G1 X104.515 Y87.334 E.03899
G1 X105.765 Y87.068 E.03903
G1 X106.604 Y86.929 E.02593
G1 X107.873 Y86.777 E.03902
G1 X109.148 Y86.696 E.039
G1 X110.427 Y86.684 E.03902
G1 X111.276 Y86.715 E.02593
G1 X112.55 Y86.82 E.03902
G1 X113.816 Y86.994 E.039
G1 X115.07 Y87.238 E.03899
G1 X116.31 Y87.55 E.03901
G1 X117.289 Y87.849 E.03125
G1 X117.93 Y88.07 E.02068
G1 X119.12 Y88.538 E.03903
G1 X120.282 Y89.069 E.039
G1 X121.413 Y89.664 E.03899
G1 X122.51 Y90.32 E.03901
G1 X123.361 Y90.888 E.03121
G1 X124.252 Y91.542 E.03375
G1 X125.243 Y92.351 E.03903
G1 X125.876 Y92.918 E.02594
G1 X126.788 Y93.814 E.03902
G1 X127.65 Y94.759 E.03902
G1 X128.194 Y95.412 E.02593
G1 X128.966 Y96.432 E.03906
G1 X129.448 Y97.132 E.02593
G1 X130.125 Y98.218 E.03906
G1 X130.54 Y98.959 E.02592
G1 X131.187 Y100.259 E.0443
G1 X131.626 Y101.274 E.03375
G1 X131.929 Y102.068 E.02595
G1 X132.331 Y103.281 E.03901
G1 X132.705 Y104.683 E.04427
G1 X132.932 Y105.764 E.03371
G1 X133.13 Y107.027 E.03901
G1 X133.254 Y108.262 E.0379
G1 X133.316 Y109.604 E.04098
G1 X133.311 Y110.597 E.03032
G1 X133.258 Y111.702 E.03374
G1 X133.13 Y112.974 E.03902
G1 X132.976 Y113.985 E.03121
G1 X132.762 Y115.07 E.03375
G1 X132.45 Y116.31 E.03902
G1 X132.151 Y117.289 E.03125
G1 X131.93 Y117.93 E.02068
G1 X131.462 Y119.12 E.03903
G1 X130.931 Y120.282 E.039
G1 X130.336 Y121.413 E.03899
G1 X129.68 Y122.51 E.03901
G1 X129.112 Y123.361 E.03121
G1 X128.458 Y124.252 E.03375
G1 X127.649 Y125.243 E.03903
G1 X127.082 Y125.876 E.02594
G1 X126.186 Y126.788 E.03902
G1 X125.241 Y127.65 E.03902
G1 X124.588 Y128.194 E.02593
G1 X123.568 Y128.966 E.03906
G1 X122.868 Y129.448 E.02593
G1 X121.782 Y130.125 E.03906
G1 X121.041 Y130.54 E.02592
G1 X119.741 Y131.187 E.0443
G1 X118.726 Y131.626 E.03375
G1 X117.932 Y131.929 E.02595
G1 X116.719 Y132.331 E.03901
G1 X115.317 Y132.705 E.04427
G1 X114.236 Y132.932 E.03371
G1 X112.973 Y133.13 E.03901
G1 X111.702 Y133.258 E.03899
G1 X110.425 Y133.316 E.03901
G1 X109.403 Y133.311 E.03121
G1 X108.298 Y133.258 E.03374
G1 X107.026 Y133.13 E.03902
G1 X106.015 Y132.976 E.03121
G1 X104.93 Y132.762 E.03375
G1 X103.69 Y132.45 E.03902
G1 X102.711 Y132.151 E.03125
G1 X102.07 Y131.93 E.02068
G1 X100.88 Y131.462 E.03903
G1 X99.718 Y130.931 E.039
G1 X98.587 Y130.336 E.03899
G1 X97.49 Y129.68 E.03901
G1 X96.639 Y129.112 E.03121
G1 X95.748 Y128.458 E.03375
G1 X94.757 Y127.649 E.03903
G1 X94.124 Y127.082 E.02594
G1 X93.212 Y126.186 E.03902
G1 X92.35 Y125.241 E.03902
G1 X91.806 Y124.588 E.02593
G1 X91.766 Y124.535 E.00202
G1 E-.7 F2400
;WIPE_START
G1 F1800
G1 X91.162 Y123.738 E-.3
;WIPE_END
G17
G3 Z.6 I.492 J1.113 P1  F9000
G1 X128.859 Y107.076 Z.6
G1 Z.2
G1 E1 F2700
;TYPE:Inner wall
G1 F1800
G1 X128.975 Y107.085 E.00358
G1 X129.619 Y107.267 E.02041
G1 X130.349 Y107.697 E.02586
G1 X130.927 Y108.317 E.02587
G1 X131.187 Y108.785 E.01636
G1 X131.288 Y109.026 E.00795
G1 X131.436 Y109.679 E.02043
G1 X131.446 Y110.251 E.01747
G1 X131.331 Y110.852 E.01867
G1 X130.984 Y111.598 E.02512
G1 X130.428 Y112.237 E.02583
G1 X129.899 Y112.604 E.01964
G1 X129.126 Y112.886 E.02512
G1 X128.502 Y112.943 E.01915
G1 X128.193 Y112.939 E.00941
G1 X127.656 Y112.832 E.01671
G1 X126.902 Y112.484 E.02535
G1 X126.263 Y111.928 E.02584
G1 X125.897 Y111.4 E.01962
G1 X125.688 Y110.896 E.01664
G1 X125.595 Y110.425 E.01464
G1 X125.543 Y109.903 E.01602
G1 X125.664 Y109.173 E.02258
G1 X126.016 Y108.402 E.02587
G1 X126.421 Y107.926 E.01907
G1 X126.69 Y107.663 E.01149
G1 X127.177 Y107.354 E.01759
G1 X127.673 Y107.162 E.01622
G1 X128.487 Y107.046 E.02512
G1 X128.819 Y107.073 E.01014
G1 X128.825 Y107.504 F9000
;TYPE:Outer wall
G1 F1800
G1 X128.856 Y107.507 E.00096
G1 X129.5 Y107.689 E.02041
G1 X130.115 Y108.068 E.02206
G1 X130.597 Y108.606 E.02206
G1 X130.845 Y109.079 E.01629
G1 X131.008 Y109.776 E.02184
G1 X131.005 Y110.276 E.01528
G1 X130.886 Y110.805 E.01652
G1 X130.591 Y111.404 E.02041
G1 X130.106 Y111.94 E.02203
G1 X129.661 Y112.236 E.01634
G1 X128.986 Y112.471 E.02182
G1 X128.279 Y112.509 E.0216
G1 X127.742 Y112.402 E.01671
G1 X127.096 Y112.091 E.02189
G1 X126.56 Y111.606 E.02204
G1 X126.264 Y111.161 E.01632
G1 X126.072 Y110.67 E.01609
G1 X125.982 Y109.961 E.02182
G1 X126.097 Y109.248 E.02206
G1 X126.409 Y108.596 E.02206
G1 X126.929 Y108.03 E.02344
G1 X127.362 Y107.752 E.01571
G1 X127.83 Y107.572 E.0153
G1 X128.539 Y107.482 E.02182
G1 X128.785 Y107.501 E.00753
